; generated by PrusaSlicer 2.5.0+MacOS-arm64 on 2022-11-26 at 12:42:52 UTC


;
;

;
;
; 

; external perimeters extrusion width = 0.65mm
; perimeters extrusion width = 0.65mm
; infill extrusion width = 0.65mm
; solid infill extrusion width = 0.65mm
; top infill extrusion width = 0.60mm
; support material extrusion width = 0.55mm
; first layer extrusion width = 0.65mm

M201 X2500 Y2500 Z200 E10000 ; sets maximum accelerations, mm/sec^2
M203 X12000 Y12000 Z720 E7200 ; sets maximum feedrates, mm / min
M204 P1500 T1500 ; sets acceleration (P, T), mm/sec^2
M566 X480.00 Y480.00 Z12.00 E150.00 ; sets the jerk limits, mm/min
M107
;TYPE:Custom
G0 X60 Y-3 Z80                         ; move extruder above bed
M568 P0 S160 A2                        ; pre-heat extruder to 160C
M140 S70    ; this will take the layer 1 temperature for bed 0
M190 S70    ; wait for bed temp
G32                                    ; execute bed.g (level gantry)
G29			                          ; perform mesh now.
G0 X0 Y-3 Z0.6                         ; go outside print area
M568 P0 S240 A2  ; set extruder temperature
M109 S240        ; wait for extruder temp
M98 P"0:/sys/primeLine.g"              ; execute primeline macro
G92 E0.0                               ; set extruder position
G21 ; set units to millimeters
G90 ; use absolute coordinates
M83 ; use relative distances for extrusion
;M572 D0 S0.08                          ; set pressure advanc
M107
;LAYER_CHANGE
;Z:0.2
;HEIGHT:0.2
;BEFORE_LAYER_CHANGE
;0.2
G92 E0
G1 E-1 F2100
G1 Z.2 F720
;AFTER_LAYER_CHANGE
;0.2
G1 Z.4
G1 X95.759 Y69.24 F12000
G1 Z.2 F720
G1 E1 F2100
M204 P1000
;TYPE:Skirt/Brim
;WIDTH:0.65
G1 F1800
G1 X96.742 Y68 E.07829
G1 X97.868 Y66.888 E.07829
G1 X99.12 Y65.919 E.07829
G1 X100.479 Y65.109 E.07829
G1 X101.926 Y64.468 E.07829
G1 X103.287 Y64.044 E.07052
G1 X104.842 Y63.749 E.07829
G1 X106.5 Y63.643 E.08218
G1 X143.579 Y63.644 E1.83426
G1 X145.785 Y63.845 E.10959
G1 X146.713 Y64.044 E.04695
G1 X148.074 Y64.468 E.07052
G1 X148.951 Y64.831 E.04695
G1 X150.213 Y65.493 E.07051
G1 X151.01 Y66.009 E.04695
G1 X152.132 Y66.888 E.07051
G1 X153.362 Y68.118 E.08607
G1 X154.241 Y69.24 E.07051
G1 X154.757 Y70.037 E.04695
G1 X155.419 Y71.299 E.07052
G1 X155.782 Y72.176 E.04695
G1 X156.206 Y73.537 E.07052
G1 X156.405 Y74.465 E.04695
G1 X156.607 Y76.75 E.11347
G1 X156.607 Y143.25 E3.28971
G1 X156.215 Y144.625 E.07075
G1 X155.156 Y145.587 E.07075
G1 X154 Y145.857 E.05872
G1 X96 Y145.857 E2.86922
G1 X94.625 Y145.465 E.07075
G1 X93.663 Y144.406 E.07075
G1 X93.393 Y143.25 E.05872
G1 X93.393 Y76.75 E3.28971
G1 X93.499 Y75.092 E.08218
G1 X93.794 Y73.537 E.07829
G1 X94.274 Y72.029 E.07829
G1 X95.243 Y70.037 E.10959
G1 X95.726 Y69.291 E.04398
M204 P1500
; printing object bottom.stl id:0 copy 0
;WIPE_START
G1 F9600
G1 X96.742 Y68 E-.34131
G1 X97.868 Y66.888 E-.3289
G1 X98.933 Y66.064 E-.2798
;WIPE_END
G1 E-.05 F2100
G1 Z.4 F720
G1 X151.961 Y141.111 F12000
G1 Z.2 F720
G1 E1 F2100
M204 P1000
;TYPE:Perimeter
;WIDTH:0.649999
G1 F1800
G1 X98.039 Y141.111 E2.66746
G1 X98.039 Y76.776 E3.18258
G1 X98.055 Y76.239 E.02658
G1 X98.102 Y75.73 E.02528
G1 X98.179 Y75.225 E.02528
G1 X98.286 Y74.725 E.02528
G1 X98.423 Y74.233 E.02528
G1 X98.59 Y73.75 E.02528
G1 X98.785 Y73.278 E.02528
G1 X99.009 Y72.818 E.02528
G1 X99.26 Y72.373 E.02528
G1 X99.537 Y71.944 E.02528
G1 X99.84 Y71.533 E.02528
G1 X100.168 Y71.14 E.02528
G1 X100.518 Y70.768 E.02528
G1 X100.89 Y70.418 E.02528
G1 X101.283 Y70.09 E.02528
G1 X101.694 Y69.788 E.02528
G1 X102.123 Y69.51 E.02528
G1 X102.568 Y69.259 E.02528
G1 X103.028 Y69.035 E.02528
G1 X103.5 Y68.84 E.02528
G1 X103.983 Y68.673 E.02528
G1 X104.475 Y68.536 E.02528
G1 X104.975 Y68.429 E.02528
G1 X105.48 Y68.352 E.02528
G1 X105.989 Y68.305 E.02528
G1 X106.526 Y68.289 E.02658
G1 X143.603 Y68.294 E1.83416
G1 X144.251 Y68.336 E.03212
G1 X145.025 Y68.429 E.03857
G1 X145.525 Y68.536 E.02528
G1 X146.017 Y68.673 E.02528
G1 X146.5 Y68.84 E.02528
G1 X146.972 Y69.035 E.02528
G1 X147.432 Y69.259 E.02528
G1 X147.877 Y69.51 E.02528
G1 X148.306 Y69.788 E.02528
G1 X148.717 Y70.09 E.02528
G1 X149.11 Y70.418 E.02528
G1 X149.482 Y70.768 E.02528
G1 X149.832 Y71.14 E.02528
G1 X150.154 Y71.525 E.02482
G1 X150.525 Y72.043 E.03152
G1 X150.995 Y72.828 E.04526
G1 X151.258 Y73.386 E.03054
G1 X151.481 Y73.981 E.03143
G1 X151.714 Y74.725 E.03857
G1 X151.821 Y75.225 E.02528
G1 X151.898 Y75.73 E.02528
G1 X151.945 Y76.239 E.02528
G1 X151.961 Y76.776 E.02658
G1 X151.961 Y141.051 E3.17961
M204 P1500
G1 X152.568 Y141.718 F12000
M204 P1000
G1 F1800
G1 X97.432 Y141.718 E2.72753
G1 X97.432 Y76.767 E3.21307
G1 X97.449 Y76.203 E.02794
G1 X97.499 Y75.657 E.0271
G1 X97.581 Y75.116 E.0271
G1 X97.696 Y74.58 E.0271
G1 X97.843 Y74.052 E.0271
G1 X98.022 Y73.535 E.02709
G1 X98.231 Y73.029 E.0271
G1 X98.471 Y72.536 E.0271
G1 X98.74 Y72.059 E.0271
G1 X99.038 Y71.599 E.02709
G1 X99.362 Y71.158 E.0271
G1 X99.713 Y70.737 E.0271
G1 X100.088 Y70.338 E.0271
G1 X100.487 Y69.963 E.0271
G1 X100.908 Y69.612 E.0271
G1 X101.349 Y69.288 E.0271
G1 X101.809 Y68.99 E.02709
G1 X102.286 Y68.721 E.0271
G1 X102.779 Y68.481 E.0271
G1 X103.285 Y68.272 E.0271
G1 X103.802 Y68.093 E.02709
G1 X104.33 Y67.946 E.0271
G1 X104.866 Y67.831 E.0271
G1 X105.407 Y67.749 E.0271
G1 X105.953 Y67.699 E.0271
G1 X106.517 Y67.682 E.02794
G1 X143.623 Y67.687 E1.83558
G1 X144.605 Y67.75 E.04868
G1 X145.134 Y67.831 E.02651
G1 X145.67 Y67.946 E.0271
G1 X146.198 Y68.093 E.0271
G1 X146.715 Y68.272 E.02709
G1 X147.221 Y68.481 E.0271
G1 X147.714 Y68.721 E.0271
G1 X148.191 Y68.99 E.0271
G1 X148.651 Y69.288 E.02709
G1 X149.092 Y69.612 E.0271
G1 X149.513 Y69.963 E.0271
G1 X149.912 Y70.338 E.02709
G1 X150.287 Y70.737 E.02709
G1 X150.634 Y71.154 E.02682
G1 X151.033 Y71.71 E.03385
G1 X151.531 Y72.542 E.04798
G1 X151.818 Y73.15 E.03327
G1 X152.16 Y74.064 E.04826
G1 X152.304 Y74.58 E.02651
G1 X152.419 Y75.116 E.0271
G1 X152.501 Y75.657 E.0271
G1 X152.551 Y76.203 E.0271
G1 X152.568 Y76.767 E.02794
G1 X152.568 Y141.658 E3.2101
M204 P1500
G1 X153.175 Y142.325 F12000
M204 P1000
;TYPE:External perimeter
G1 F1800
G1 X96.825 Y142.325 E2.78759
G1 X96.825 Y76.758 E3.24355
G1 X96.843 Y76.166 E.0293
G1 X96.896 Y75.584 E.02891
G1 X96.984 Y75.006 E.02891
G1 X97.106 Y74.435 E.02891
G1 X97.263 Y73.872 E.02891
G1 X97.454 Y73.319 E.02891
G1 X97.678 Y72.779 E.02891
G1 X97.933 Y72.254 E.02891
G1 X98.221 Y71.745 E.02891
G1 X98.538 Y71.254 E.02891
G1 X98.884 Y70.783 E.02891
G1 X99.258 Y70.334 E.02891
G1 X99.659 Y69.909 E.02891
G1 X100.084 Y69.508 E.02891
G1 X100.533 Y69.134 E.02891
G1 X101.004 Y68.788 E.02891
G1 X101.495 Y68.471 E.02891
G1 X102.004 Y68.183 E.02891
G1 X102.529 Y67.928 E.02891
G1 X103.069 Y67.704 E.02891
G1 X103.622 Y67.513 E.02891
G1 X104.185 Y67.356 E.02891
G1 X104.756 Y67.234 E.02891
G1 X105.334 Y67.146 E.02891
G1 X105.916 Y67.093 E.02891
G1 X106.508 Y67.075 E.0293
G1 X143.642 Y67.08 E1.83701
G1 X144.67 Y67.146 E.05095
G1 X145.244 Y67.234 E.02872
G1 X145.815 Y67.356 E.02891
G1 X146.378 Y67.513 E.02891
G1 X146.931 Y67.704 E.02891
G1 X147.471 Y67.928 E.02891
G1 X147.996 Y68.183 E.02891
G1 X148.505 Y68.471 E.02891
G1 X148.996 Y68.788 E.02891
G1 X149.467 Y69.134 E.02891
G1 X149.916 Y69.508 E.02891
G1 X150.341 Y69.909 E.02891
G1 X150.742 Y70.334 E.02891
G1 X151.115 Y70.782 E.02881
G1 X151.541 Y71.376 E.03619
G1 X152.067 Y72.256 E.0507
G1 X152.378 Y72.914 E.03599
G1 X152.738 Y73.876 E.0508
G1 X152.894 Y74.435 E.02872
G1 X153.016 Y75.006 E.02891
G1 X153.104 Y75.584 E.02891
G1 X153.157 Y76.166 E.02891
G1 X153.175 Y76.758 E.0293
G1 X153.175 Y142.265 E3.24059
M204 P1500
G1 X152.829 Y142.125 F12000
;WIPE_START
G1 F9600
G1 X148.604 Y142.27 E-.95
;WIPE_END
G1 E-.05 F2100
G1 Z.4 F720
G1 X150.611 Y72.542 F12000
G1 Z.2 F720
G1 E1 F2100
M204 P1000
;TYPE:Solid infill
;WIDTH:0.65107
G1 F1800
G1 X149.149 Y71.08 E.10245
G1 X148.808 Y70.759 E.02323
G1 X148.437 Y70.449 E.02396
G1 X148.047 Y70.162 E.02396
G1 X147.641 Y69.9 E.02396
G1 X147.22 Y69.662 E.02396
G1 X146.572 Y69.362 E.0354
G1 X150.878 Y73.668 E.30177
G1 X151.149 Y74.393 E.03836
G1 X151.296 Y74.947 E.02838
G1 X145.303 Y68.954 E.41999
G1 X144.943 Y68.877 E.01827
G1 X144.284 Y68.794 E.03292
G1 X151.463 Y75.974 E.50318
G1 X151.49 Y76.267 E.01457
G1 X151.506 Y76.876 E.03022
G1 X143.378 Y68.749 E.56958
G1 X142.518 Y68.749 E.04263
G1 X151.506 Y77.736 E.62986
G1 X151.506 Y78.596 E.04262
G1 X141.658 Y68.749 E.69015
G1 X140.798 Y68.749 E.04263
G1 X151.506 Y79.456 E.75043
G1 X151.506 Y80.316 E.04262
G1 X139.938 Y68.749 E.81071
G1 X139.078 Y68.749 E.04263
G1 X151.506 Y81.177 E.87099
G1 X151.506 Y82.037 E.04262
G1 X138.217 Y68.748 E.93128
G1 X137.357 Y68.748 E.04263
G1 X151.506 Y82.897 E.99156
G1 X151.506 Y83.757 E.04262
G1 X136.497 Y68.748 E1.05184
G1 X135.637 Y68.748 E.04263
G1 X151.506 Y84.617 E1.11213
G1 X151.506 Y85.477 E.04262
G1 X134.777 Y68.748 E1.17241
G1 X133.917 Y68.748 E.04263
G1 X151.506 Y86.337 E1.23269
G1 X151.506 Y87.197 E.04262
G1 X133.056 Y68.748 E1.29298
G1 X132.196 Y68.748 E.04263
G1 X151.506 Y88.057 E1.35326
G1 X151.506 Y88.917 E.04262
G1 X131.336 Y68.748 E1.41354
G1 X130.476 Y68.747 E.04263
G1 X151.506 Y89.777 E1.47383
G1 X151.506 Y90.637 E.04262
G1 X129.616 Y68.747 E1.53411
G1 X128.756 Y68.747 E.04263
G1 X151.506 Y91.497 E1.59439
G1 X151.506 Y92.357 E.04262
G1 X127.895 Y68.747 E1.65468
G1 X127.035 Y68.747 E.04263
G1 X151.506 Y93.217 E1.71496
G1 X151.506 Y94.077 E.04262
G1 X126.175 Y68.747 E1.77524
G1 X125.315 Y68.747 E.04263
G1 X151.506 Y94.937 E1.83553
G1 X151.506 Y95.797 E.04262
G1 X124.455 Y68.747 E1.89581
G1 X123.595 Y68.747 E.04263
G1 X151.506 Y96.658 E1.95609
G1 X151.506 Y97.518 E.04262
G1 X122.734 Y68.747 E2.01638
G1 X121.874 Y68.746 E.04263
G1 X151.506 Y98.378 E2.07666
G1 X151.506 Y99.238 E.04262
G1 X121.014 Y68.746 E2.13694
G1 X120.154 Y68.746 E.04263
G1 X151.506 Y100.098 E2.19723
G1 X151.506 Y100.958 E.04262
G1 X119.294 Y68.746 E2.25751
G1 X118.434 Y68.746 E.04263
G1 X151.506 Y101.818 E2.31779
G1 X151.506 Y102.678 E.04262
G1 X117.574 Y68.746 E2.37808
G1 X116.713 Y68.746 E.04263
G1 X151.506 Y103.538 E2.43836
G1 X151.506 Y104.398 E.04262
G1 X115.853 Y68.746 E2.49864
G1 X114.993 Y68.746 E.04263
G1 X151.506 Y105.258 E2.55892
G1 X151.506 Y106.118 E.04262
G1 X114.133 Y68.745 E2.61921
G1 X113.273 Y68.745 E.04263
G1 X151.506 Y106.978 E2.67949
G1 X151.506 Y107.838 E.04262
G1 X112.413 Y68.745 E2.73977
G1 X111.552 Y68.745 E.04263
G1 X151.506 Y108.698 E2.80006
G1 X151.506 Y109.558 E.04262
G1 X110.692 Y68.745 E2.86034
G1 X109.832 Y68.745 E.04263
G1 X151.506 Y110.418 E2.92062
G1 X151.506 Y111.278 E.04262
G1 X108.972 Y68.745 E2.98091
G1 X108.112 Y68.745 E.04263
G1 X151.506 Y112.138 E3.04119
G1 X151.506 Y112.999 E.04262
G1 X107.252 Y68.745 E3.10147
G1 X106.398 Y68.751 E.04231
G1 X151.506 Y113.859 E3.16131
G1 X151.506 Y114.719 E.04262
G1 X105.586 Y68.799 E3.2182
G1 X104.848 Y68.921 E.03706
G1 X151.506 Y115.579 E3.26991
G1 X151.506 Y116.439 E.04262
G1 X104.162 Y69.096 E3.31797
G1 X103.528 Y69.321 E.03338
G1 X151.506 Y117.299 E3.36245
G1 X151.506 Y118.159 E.04262
G1 X102.934 Y69.587 E3.40406
G1 X102.377 Y69.89 E.03143
G1 X151.506 Y119.019 E3.44313
G1 X151.506 Y119.879 E.04262
G1 X101.858 Y70.232 E3.47944
G1 X101.374 Y70.607 E.03038
G1 X151.506 Y120.739 E3.51342
G1 X151.506 Y121.599 E.04262
G1 X100.921 Y71.014 E3.54517
G1 X100.499 Y71.453 E.03014
G1 X151.506 Y122.459 E3.57469
G1 X151.506 Y123.319 E.04262
G1 X100.115 Y71.928 E3.60166
G1 X99.762 Y72.436 E.03062
G1 X151.506 Y124.179 E3.62637
G1 X151.506 Y125.039 E.04262
G1 X99.443 Y72.976 E3.64875
G1 X99.163 Y73.556 E.03192
G1 X151.506 Y125.899 E3.66837
G1 X151.506 Y126.759 E.04262
G1 X98.924 Y74.178 E3.68511
G1 X98.727 Y74.841 E.03428
G1 X151.506 Y127.619 E3.69893
G1 X151.506 Y128.48 E.04262
G1 X98.588 Y75.562 E3.70866
G1 X98.508 Y76.342 E.03886
G1 X151.506 Y129.34 E3.71427
G1 X151.506 Y130.2 E.04262
G1 X98.494 Y77.189 E3.7152
G1 X98.494 Y78.049 E.04262
G1 X151.506 Y131.06 E3.7152
G1 X151.506 Y131.92 E.04262
G1 X98.494 Y78.909 E3.7152
G1 X98.494 Y79.769 E.04262
G1 X151.506 Y132.78 E3.7152
G1 X151.506 Y133.64 E.04262
G1 X98.494 Y80.629 E3.7152
G1 X98.494 Y81.489 E.04262
G1 X151.506 Y134.5 E3.7152
G1 X151.506 Y135.36 E.04262
G1 X98.494 Y82.349 E3.7152
G1 X98.494 Y83.209 E.04262
G1 X151.506 Y136.22 E3.7152
G1 X151.506 Y137.08 E.04262
G1 X98.494 Y84.069 E3.7152
G1 X98.494 Y84.929 E.04262
G1 X151.506 Y137.94 E3.7152
G1 X151.506 Y138.8 E.04262
G1 X98.494 Y85.789 E3.7152
G1 X98.494 Y86.649 E.04262
G1 X151.506 Y139.66 E3.7152
G1 X151.506 Y140.52 E.04262
G1 X98.494 Y87.509 E3.7152
G1 X98.494 Y88.369 E.04262
G1 X150.781 Y140.656 E3.66441
G1 X149.921 Y140.656 E.04262
G1 X98.494 Y89.229 E3.60413
G1 X98.494 Y90.089 E.04262
G1 X149.061 Y140.656 E3.54386
G1 X148.201 Y140.656 E.04262
G1 X98.494 Y90.949 E3.48358
G1 X98.494 Y91.809 E.04262
G1 X147.341 Y140.656 E3.42331
G1 X146.48 Y140.656 E.04262
G1 X98.494 Y92.669 E3.36303
G1 X98.494 Y93.53 E.04262
G1 X145.62 Y140.656 E3.30275
G1 X144.76 Y140.656 E.04262
G1 X98.494 Y94.39 E3.24248
G1 X98.494 Y95.25 E.04262
G1 X143.9 Y140.656 E3.1822
G1 X143.04 Y140.656 E.04262
G1 X98.494 Y96.11 E3.12193
G1 X98.494 Y96.97 E.04262
G1 X142.18 Y140.656 E3.06165
G1 X141.32 Y140.656 E.04262
G1 X98.494 Y97.83 E3.00138
G1 X98.494 Y98.69 E.04262
G1 X140.46 Y140.656 E2.9411
G1 X139.6 Y140.656 E.04262
G1 X98.494 Y99.55 E2.88083
G1 X98.494 Y100.41 E.04262
G1 X138.74 Y140.656 E2.82055
G1 X137.88 Y140.656 E.04262
G1 X98.494 Y101.27 E2.76027
G1 X98.494 Y102.13 E.04262
G1 X137.02 Y140.656 E2.7
G1 X136.16 Y140.656 E.04262
G1 X98.494 Y102.99 E2.63972
G1 X98.494 Y103.85 E.04262
G1 X135.3 Y140.656 E2.57945
G1 X134.44 Y140.656 E.04262
G1 X98.494 Y104.71 E2.51917
G1 X98.494 Y105.57 E.04262
G1 X133.58 Y140.656 E2.4589
G1 X132.72 Y140.656 E.04262
G1 X98.494 Y106.43 E2.39862
G1 X98.494 Y107.29 E.04262
G1 X131.86 Y140.656 E2.33834
G1 X131 Y140.656 E.04262
G1 X98.494 Y108.15 E2.27807
G1 X98.494 Y109.011 E.04262
G1 X130.139 Y140.656 E2.21779
G1 X129.279 Y140.656 E.04262
G1 X98.494 Y109.871 E2.15752
G1 X98.494 Y110.731 E.04262
G1 X128.419 Y140.656 E2.09724
G1 X127.559 Y140.656 E.04262
G1 X98.494 Y111.591 E2.03697
G1 X98.494 Y112.451 E.04262
G1 X126.699 Y140.656 E1.97669
G1 X125.839 Y140.656 E.04262
G1 X98.494 Y113.311 E1.91642
G1 X98.494 Y114.171 E.04262
G1 X124.979 Y140.656 E1.85614
G1 X124.119 Y140.656 E.04262
G1 X98.494 Y115.031 E1.79586
G1 X98.494 Y115.891 E.04262
G1 X123.259 Y140.656 E1.73559
G1 X122.399 Y140.656 E.04262
G1 X98.494 Y116.751 E1.67531
G1 X98.494 Y117.611 E.04262
G1 X121.539 Y140.656 E1.61504
G1 X120.679 Y140.656 E.04262
G1 X98.494 Y118.471 E1.55476
G1 X98.494 Y119.331 E.04262
G1 X119.819 Y140.656 E1.49449
G1 X118.959 Y140.656 E.04262
G1 X98.494 Y120.191 E1.43421
G1 X98.494 Y121.051 E.04262
G1 X118.099 Y140.656 E1.37394
G1 X117.239 Y140.656 E.04262
G1 X98.494 Y121.911 E1.31366
G1 X98.494 Y122.771 E.04262
G1 X116.379 Y140.656 E1.25338
G1 X115.519 Y140.656 E.04262
G1 X98.494 Y123.631 E1.19311
G1 X98.494 Y124.491 E.04262
G1 X114.658 Y140.656 E1.13283
G1 X113.798 Y140.656 E.04262
G1 X98.494 Y125.352 E1.07256
G1 X98.494 Y126.212 E.04262
G1 X112.938 Y140.656 E1.01228
G1 X112.078 Y140.656 E.04262
G1 X98.494 Y127.072 E.95201
G1 X98.494 Y127.932 E.04262
G1 X111.218 Y140.656 E.89173
G1 X110.358 Y140.656 E.04262
G1 X98.494 Y128.792 E.83145
G1 X98.494 Y129.652 E.04262
G1 X109.498 Y140.656 E.77118
G1 X108.638 Y140.656 E.04262
G1 X98.494 Y130.512 E.7109
G1 X98.494 Y131.372 E.04262
G1 X107.778 Y140.656 E.65063
G1 X106.918 Y140.656 E.04262
G1 X98.494 Y132.232 E.59035
G1 X98.494 Y133.092 E.04262
G1 X106.058 Y140.656 E.53008
G1 X105.198 Y140.656 E.04262
G1 X98.494 Y133.952 E.4698
G1 X98.494 Y134.812 E.04262
G1 X104.338 Y140.656 E.40953
G1 X103.478 Y140.656 E.04262
G1 X98.494 Y135.672 E.34925
G1 X98.494 Y136.532 E.04262
G1 X102.618 Y140.656 E.28897
G1 X101.758 Y140.656 E.04262
G1 X98.494 Y137.392 E.2287
G1 X98.494 Y138.252 E.04262
G1 X100.898 Y140.656 E.16842
G1 X100.038 Y140.656 E.04262
G1 X98.494 Y139.112 E.10815
G1 X98.494 Y139.972 E.04262
G1 X99.451 Y140.929 E.06702
M204 P1500
; stop printing object bottom.stl id:0 copy 0
;LAYER_CHANGE
;Z:0.4
;HEIGHT:0.2
;BEFORE_LAYER_CHANGE
;0.4
G92 E0
;WIPE_START
G1 F9600
