; generated by PrusaSlicer 2.5.0+MacOS-arm64 on 2022-11-26 at 12:40:54 UTC


;
;

;
;
; 

; external perimeters extrusion width = 0.65mm
; perimeters extrusion width = 0.65mm
; infill extrusion width = 0.65mm
; solid infill extrusion width = 0.65mm
; top infill extrusion width = 0.60mm
; support material extrusion width = 0.55mm
; first layer extrusion width = 0.65mm

M201 X2500 Y2500 Z200 E10000 ; sets maximum accelerations, mm/sec^2
M203 X12000 Y12000 Z720 E7200 ; sets maximum feedrates, mm / min
M204 P1500 T1500 ; sets acceleration (P, T), mm/sec^2
M566 X480.00 Y480.00 Z12.00 E150.00 ; sets the jerk limits, mm/min
M107
;TYPE:Custom
G0 X60 Y-3 Z80                         ; move extruder above bed
M568 P0 S160 A2                        ; pre-heat extruder to 160C
M140 S70    ; this will take the layer 1 temperature for bed 0
M190 S70    ; wait for bed temp
G32                                    ; execute bed.g (level gantry)
G29			                          ; perform mesh now.
G0 X0 Y-3 Z0.6                         ; go outside print area
M568 P0 S240 A2  ; set extruder temperature
M109 S240        ; wait for extruder temp
M98 P"0:/sys/primeLine.g"              ; execute primeline macro
G92 E0.0                               ; set extruder position
G21 ; set units to millimeters
G90 ; use absolute coordinates
M83 ; use relative distances for extrusion
;M572 D0 S0.08                          ; set pressure advanc
M107
;LAYER_CHANGE
;Z:0.2
;HEIGHT:0.2
;BEFORE_LAYER_CHANGE
;0.2
G92 E0
G1 E-1 F2100
G1 Z.2 F720
;AFTER_LAYER_CHANGE
;0.2
G1 Z.4
G1 X96.285 Y67.844 F12000
G1 Z.2 F720
G1 E1 F2100
M204 P1000
;TYPE:Skirt/Brim
;WIDTH:0.65
G1 F1800
G1 X97.344 Y66.883 E.07075
G1 X98.5 Y66.613 E.05872
G1 X151.5 Y66.613 E2.62187
G1 X152.875 Y67.005 E.07075
G1 X153.837 Y68.064 E.07075
G1 X154.107 Y69.22 E.05872
G1 X154.107 Y134.4 E3.22442
G1 X153.963 Y136.138 E.08627
G1 X153.625 Y137.559 E.07224
G1 X152.996 Y139.125 E.08354
G1 X152.257 Y140.385 E.07224
G1 X151.499 Y141.366 E.06132
G1 X150.799 Y142.096 E.05001
G1 X149.762 Y142.96 E.06678
G1 X148.721 Y143.632 E.06132
G1 X147.818 Y144.088 E.05
G1 X146.553 Y144.558 E.06678
G1 X145.347 Y144.844 E.06132
G1 X144.005 Y144.994 E.06678
G1 X106.105 Y144.999 E1.8749
G1 X104.653 Y144.844 E.07225
G1 X103.341 Y144.525 E.06679
G1 X101.774 Y143.896 E.08354
G1 X100.515 Y143.156 E.07225
G1 X99.534 Y142.398 E.06131
G1 X98.575 Y141.449 E.06678
G1 X97.939 Y140.662 E.05002
G1 X97.213 Y139.524 E.06677
G1 X96.679 Y138.406 E.06133
G1 X96.342 Y137.453 E.05
G1 X96.055 Y136.247 E.06132
G1 X95.905 Y134.905 E.06678
G1 X95.893 Y69.22 E3.24942
G1 X96.269 Y67.902 E.06779
M204 P1500
; printing object top.stl id:0 copy 0
;WIPE_START
G1 F9600
G1 X97.344 Y66.883 E-.30789
G1 X98.5 Y66.613 E-.24668
G1 X100.403 Y66.613 E-.39543
;WIPE_END
G1 E-.05 F2100
G1 Z.4 F720
G1 X149.461 Y71.398 F12000
G1 Z.2 F720
G1 E1 F2100
M204 P1000
;TYPE:Perimeter
;WIDTH:0.649999
G1 F1800
G1 X149.461 Y134.232 E3.10834
G1 X149.448 Y134.662 E.0213
G1 X149.404 Y135.171 E.02525
G1 X149.317 Y135.669 E.025
G1 X149.137 Y136.311 E.03302
G1 X148.916 Y136.884 E.03037
G1 X148.662 Y137.352 E.02633
G1 X148.244 Y138.006 E.03841
G1 X147.917 Y138.4 E.02534
G1 X147.5 Y138.816 E.02912
G1 X147.106 Y139.144 E.02534
G1 X146.682 Y139.438 E.02554
G1 X146.234 Y139.695 E.02554
G1 X145.777 Y139.906 E.0249
G1 X145.085 Y140.143 E.03618
G1 X144.523 Y140.27 E.02854
G1 X144.016 Y140.337 E.02529
G1 X143.465 Y140.361 E.02729
G1 X106.518 Y140.354 E1.82775
G1 X105.835 Y140.315 E.0338
G1 X105.242 Y140.224 E.0297
G1 X104.582 Y140.029 E.03405
G1 X104.02 Y139.818 E.02972
G1 X103.258 Y139.398 E.04302
G1 X102.895 Y139.131 E.02227
G1 X102.486 Y138.797 E.02614
G1 X102.092 Y138.399 E.02768
G1 X101.754 Y137.995 E.02608
G1 X101.456 Y137.562 E.02599
G1 X101.175 Y137.064 E.0283
G1 X100.927 Y136.508 E.03013
G1 X100.756 Y135.93 E.02978
G1 X100.591 Y135.172 E.03838
G1 X100.546 Y134.658 E.02555
G1 X100.539 Y71.398 E3.12942
G1 X149.401 Y71.398 E2.41714
M204 P1500
G1 X150.068 Y70.791 F12000
M204 P1000
G1 F1800
G1 X150.068 Y134.232 E3.13837
G1 X150.054 Y134.688 E.0226
G1 X150.004 Y135.262 E.02847
G1 X149.91 Y135.799 E.02699
G1 X149.715 Y136.496 E.03582
G1 X149.465 Y137.147 E.03448
G1 X149.046 Y137.915 E.04326
G1 X148.728 Y138.374 E.02766
G1 X148.366 Y138.81 E.02802
G1 X147.91 Y139.265 E.03188
G1 X147.474 Y139.627 E.02802
G1 X147.007 Y139.952 E.02815
G1 X146.513 Y140.235 E.02815
G1 X146.004 Y140.47 E.02777
G1 X145.251 Y140.728 E.03934
G1 X144.63 Y140.869 E.03153
G1 X144.069 Y140.942 E.02799
G1 X143.478 Y140.968 E.02925
G1 X106.517 Y140.961 E1.8284
G1 X105.779 Y140.919 E.0366
G1 X105.102 Y140.816 E.03387
G1 X104.41 Y140.611 E.03572
G1 X103.756 Y140.365 E.03457
G1 X102.93 Y139.91 E.04662
G1 X102.536 Y139.62 E.02422
G1 X102.078 Y139.246 E.02925
G1 X101.645 Y138.809 E.03043
G1 X101.271 Y138.362 E.02884
G1 X100.943 Y137.887 E.02859
G1 X100.636 Y137.342 E.0309
G1 X100.354 Y136.711 E.03421
G1 X100.084 Y135.799 E.04703
G1 X99.988 Y135.251 E.02752
G1 X99.939 Y134.684 E.02815
G1 X99.932 Y70.791 E3.16076
G1 X150.008 Y70.791 E2.47721
M204 P1500
G1 X150.675 Y70.184 F12000
M204 P1000
;TYPE:External perimeter
G1 F1800
G1 X150.675 Y134.391 E3.17626
G1 X150.648 Y135.021 E.03121
G1 X150.567 Y135.637 E.03075
G1 X150.434 Y136.243 E.0307
G1 X150.22 Y136.911 E.03469
G1 X150.013 Y137.409 E.02667
G1 X149.564 Y138.234 E.04646
G1 X149.211 Y138.742 E.03059
G1 X148.815 Y139.219 E.03071
G1 X148.319 Y139.714 E.03465
G1 X147.842 Y140.111 E.0307
G1 X147.331 Y140.466 E.03075
G1 X146.792 Y140.775 E.03075
G1 X146.23 Y141.035 E.03063
G1 X145.417 Y141.313 E.04249
G1 X144.736 Y141.467 E.03453
G1 X144.121 Y141.548 E.0307
G1 X143.491 Y141.575 E.03121
G1 X106.19 Y141.568 E1.84523
G1 X105.492 Y141.502 E.03469
G1 X104.962 Y141.408 E.02664
G1 X103.985 Y141.118 E.05039
G1 X103.492 Y140.913 E.02645
G1 X102.603 Y140.423 E.05021
G1 X101.913 Y139.916 E.04236
G1 X101.455 Y139.501 E.03058
G1 X100.982 Y138.984 E.03464
G1 X100.606 Y138.49 E.03071
G1 X100.274 Y137.965 E.03075
G1 X99.988 Y137.412 E.03078
G1 X99.781 Y136.914 E.02667
G1 X99.492 Y135.938 E.05035
G1 X99.386 Y135.33 E.03054
G1 X99.332 Y134.711 E.03075
G1 X99.325 Y70.184 E3.19209
G1 X150.615 Y70.184 E2.53728
M204 P1500
G1 X150.586 Y70.574 F12000
;WIPE_START
G1 F9600
G1 X150.619 Y74.755 E-.95
;WIPE_END
G1 E-.05 F2100
G1 Z.4 F720
G1 X143.592 Y116.529 F12000
G1 Z.2 F720
G1 E1 F2100
M204 P1000
;TYPE:Perimeter
G1 F1800
G1 X143.576 Y116.691 E.00802
G1 X143.496 Y116.964 E.01412
G1 X143.213 Y117.419 E.02647
G1 X142.846 Y117.715 E.02335
G1 X136.794 Y121.213 E.34579
G1 X136.355 Y121.383 E.02329
G1 X135.936 Y121.414 E.02079
G1 X135.483 Y121.313 E.02294
G1 X135.024 Y121.031 E.02667
G1 X134.803 Y120.786 E.0163
G1 X132.064 Y116.984 E.23182
G1 X132.068 Y123.041 E.29963
G1 X132.007 Y123.469 E.02135
G1 X131.819 Y123.876 E.02223
G1 X131.574 Y124.163 E.01866
G1 X131.31 Y124.356 E.01616
G1 X125.321 Y127.818 E.34222
G1 X124.884 Y127.987 E.02319
G1 X124.4 Y128.013 E.02398
G1 X123.939 Y127.889 E.02358
G1 X123.803 Y127.819 E.0076
G1 X106.304 Y117.716 E.99956
G1 X105.937 Y117.419 E.02336
G1 X105.653 Y116.965 E.02648
G1 X105.568 Y116.664 E.01547
G1 X105.545 Y116.401 E.01303
G1 X105.546 Y97.685 E.92587
G1 X105.615 Y96.601 E.05373
G1 X105.772 Y95.911 E.03505
G1 X105.55 Y95.542 E.0213
G1 X105.462 Y95.177 E.01855
G1 X105.475 Y94.745 E.02139
G1 X105.612 Y94.33 E.02161
G1 X105.926 Y93.906 E.02611
G1 X106.752 Y93.317 E.05017
G1 X107.277 Y92.997 E.03043
G1 X123.801 Y83.431 E.94453
G1 X124.239 Y83.261 E.02322
G1 X124.723 Y83.235 E.02401
G1 X125.184 Y83.36 E.02361
G1 X125.321 Y83.43 E.00761
G1 X131.531 Y87.02 E.35486
G1 X131.891 Y87.309 E.02284
G1 X132.128 Y87.653 E.02066
G1 X132.27 Y88.093 E.02288
G1 X132.289 Y88.333 E.01192
G1 X132.25 Y88.679 E.01722
G1 X132.115 Y89.041 E.0191
G1 X131.745 Y89.498 E.02911
G1 X131.531 Y89.648 E.01289
G1 X122.279 Y94.995 E.52864
G1 X124.56 Y96.303 E.13003
G1 X135.34 Y90.096 E.61537
G1 X135.741 Y89.936 E.02135
G1 X136.187 Y89.897 E.02214
G1 X136.615 Y89.985 E.02162
G1 X136.857 Y90.098 E.01321
G1 X142.846 Y93.559 E.34221
G1 X143.213 Y93.856 E.02335
G1 X143.496 Y94.31 E.02647
G1 X143.576 Y94.584 E.01412
G1 X143.604 Y94.873 E.01437
G1 X143.598 Y116.47 E1.06835
M204 P1500
G1 X142.977 Y116.507 F12000
M204 P1000
G1 F1800
G1 X142.932 Y116.739 E.01168
G1 X142.762 Y117.012 E.01588
G1 X142.542 Y117.19 E.01401
G1 X136.49 Y120.688 E.34579
G1 X136.155 Y120.802 E.01755
G1 X135.814 Y120.783 E.0169
G1 X135.574 Y120.685 E.01281
G1 X135.296 Y120.432 E.0186
G1 X131.455 Y115.101 E.32499
G1 X131.461 Y123.042 E.3928
G1 X131.395 Y123.384 E.01726
G1 X131.209 Y123.672 E.01692
G1 X131.006 Y123.831 E.01275
G1 X125.017 Y127.293 E.34222
G1 X124.659 Y127.41 E.01863
G1 X124.369 Y127.394 E.01439
G1 X124.106 Y127.293 E.01392
G1 X106.607 Y117.19 E.99956
G1 X106.387 Y117.012 E.01401
G1 X106.217 Y116.739 E.01589
G1 X106.152 Y116.401 E.01703
G1 X106.153 Y97.685 E.92587
G1 X106.221 Y96.642 E.05172
G1 X106.392 Y95.946 E.03549
G1 X106.471 Y95.762 E.00986
G1 X106.314 Y95.639 E.00986
G1 X106.101 Y95.28 E.02061
G1 X106.063 Y94.933 E.0173
G1 X106.155 Y94.601 E.01704
G1 X106.344 Y94.347 E.01566
G1 X107.095 Y93.818 E.04544
G1 X107.581 Y93.522 E.02815
G1 X124.105 Y83.956 E.94453
G1 X124.404 Y83.847 E.01574
G1 X124.754 Y83.854 E.01733
G1 X125.017 Y83.956 E.01393
G1 X131.227 Y87.545 E.35486
G1 X131.49 Y87.774 E.01726
G1 X131.646 Y88.077 E.01682
G1 X131.682 Y88.333 E.01281
G1 X131.659 Y88.541 E.01033
G1 X131.578 Y88.758 E.01146
G1 X131.356 Y89.032 E.01746
G1 X131.227 Y89.122 E.00774
G1 X121.062 Y94.997 E.58081
G1 X124.56 Y97.003 E.19946
G1 X135.643 Y90.622 E.63262
G1 X135.973 Y90.51 E.01725
G1 X136.313 Y90.527 E.01682
G1 X136.553 Y90.623 E.01282
G1 X142.542 Y94.085 E.34221
G1 X142.762 Y94.263 E.01401
G1 X142.932 Y94.535 E.01588
G1 X142.997 Y94.873 E.01702
G1 X142.988 Y116.448 E1.06731
M204 P1500
;WIPE_START
G1 F9600
G1 X142.932 Y116.739 E-.06152
G1 X142.762 Y117.012 E-.06672
G1 X142.542 Y117.19 E-.05885
G1 X139.364 Y119.027 E-.76291
;WIPE_END
G1 E-.05 F2100
G1 Z.4 F720
G1 X122.832 Y116.531 F12000
G1 Z.2 F720
G1 E1 F2100
M204 P1000
G1 F1800
G1 X114.176 Y111.693 E.49056
G1 X114.23 Y108.963 E.13503
G1 X121.24 Y113.094 E.40249
G1 X122.2 Y113.578 E.05319
G1 X122.85 Y113.785 E.03378
G1 X122.823 Y114.686 E.04459
G1 X122.833 Y116.471 E.08828
M204 P1500
;WIPE_START
G1 F9600
G1 X118.831 Y114.262 E-.95
;WIPE_END
G1 E-.05 F2100
G1 Z.4 F720
G1 X123.503 Y117.693 F12000
G1 Z.2 F720
G1 E1 F2100
M204 P1000
G1 F1800
G1 X122.469 Y117.023 E.061
G1 X113.562 Y112.045 E.50475
G1 X113.643 Y107.913 E.20442
G1 X121.602 Y112.6 E.45692
G1 X122.643 Y113.101 E.05714
G1 X123.15 Y113.237 E.02599
G1 X123.517 Y113.229 E.01816
G1 X123.462 Y113.653 E.02115
G1 X123.43 Y114.682 E.05093
G1 X123.445 Y117.156 E.12237
G1 X123.497 Y117.634 E.02377
M204 P1500
;WIPE_START
G1 F9600
G1 X122.469 Y117.023 E-.24857
G1 X119.522 Y115.376 E-.70143
;WIPE_END
G1 E-.05 F2100
G1 Z.4 F720
G1 X134.362 Y105.563 F12000
G1 Z.2 F720
G1 E1 F2100
M204 P1000
G1 F1800
G1 X132.533 Y103.048 E.15383
G1 X132.144 Y102.586 E.02986
G1 X132.752 Y102.259 E.03417
G1 X134.36 Y101.321 E.09207
G1 X134.362 Y105.503 E.20686
M204 P1500
;WIPE_START
G1 F9600
G1 X132.533 Y103.048 E-.63615
G1 X132.144 Y102.586 E-.12543
G1 X132.752 Y102.259 E-.14353
G1 X132.938 Y102.15 E-.04488
;WIPE_END
G1 E-.05 F2100
G1 Z.4 F720
G1 X134.971 Y107.437 F12000
G1 Z.2 F720
G1 E1 F2100
M204 P1000
G1 F1800
G1 X132.069 Y103.439 E.24438
G1 X131.449 Y102.704 E.04754
G1 X131.111 Y102.401 E.02248
G1 X131.542 Y102.221 E.02308
G1 X132.446 Y101.734 E.05081
G1 X134.593 Y100.482 E.12296
G1 X135.042 Y100.16 E.02736
G1 X134.973 Y100.904 E.03698
G1 X134.966 Y101.417 E.0254
G1 X134.97 Y107.377 E.29482
M204 P1500
;WIPE_START
G1 F9600
G1 X132.258 Y103.697 E-.95
;WIPE_END
G1 E-.05 F2100
G1 Z.4 F720
G1 X142.39 Y116.401 F12000
G1 Z.2 F720
G1 E1 F2100
M204 P1000
;TYPE:External perimeter
G1 F1800
G1 X142.343 Y116.563 E.00833
G1 X142.238 Y116.664 E.00721
G1 X136.187 Y120.162 E.34579
G1 X135.991 Y120.2 E.00986
G1 X135.833 Y120.126 E.00864
G1 X135.788 Y120.077 E.00326
G1 X131.924 Y114.714 E.32699
G1 X131.651 Y114.283 E.02523
G1 X131.214 Y113.405 E.04851
G1 X130.654 Y112.622 E.04762
G1 X130.654 Y113.555 E.04613
G1 X130.814 Y114.515 E.04817
G1 X130.848 Y115.065 E.02724
G1 X130.854 Y123.042 E.39462
G1 X130.784 Y123.236 E.01021
G1 X130.703 Y123.305 E.00528
G1 X124.713 Y126.767 E.34222
G1 X124.509 Y126.803 E.01027
G1 X124.41 Y126.767 E.00522
G1 X106.911 Y116.664 E.99956
G1 X106.781 Y116.514 E.00983
G1 X106.759 Y116.401 E.00568
G1 X106.76 Y97.685 E.92587
G1 X106.826 Y96.683 E.0497
G1 X106.978 Y96.105 E.02953
G1 X107.044 Y95.983 E.00688
G1 X107.148 Y95.972 E.00516
;WIDTH:0.61577
G1 X107.252 Y95.96 E.00487
;WIDTH:0.581541
G1 X107.355 Y95.948 E.00458
;WIDTH:0.548381
G1 X107.399 Y95.968 E.00196
;WIDTH:0.582712
G1 X115.468 Y100.686 E.41116
;WIDTH:0.617042
G1 X123.537 Y105.404 E.43731
;WIDTH:0.65729
G1 X123.593 Y105.466 E.00416
;WIDTH:0.697537
G1 X123.649 Y105.528 E.00444
;WIDTH:0.737785
G1 X123.704 Y105.59 E.00471
;WIDTH:0.778032
G1 X123.76 Y105.652 E.00498
G1 X123.74 Y105.804 E.00919
;WIDTH:0.737718
G1 X123.719 Y105.956 E.00869
;WIDTH:0.697403
G1 X123.699 Y106.108 E.00818
;WIDTH:0.657089
G1 X123.679 Y106.26 E.00768
;WIDTH:0.616774
G1 X123.679 Y112.359 E.28522
;WIDTH:0.629854
G1 X123.653 Y112.494 E.00656
;WIDTH:0.649999
G1 X123.503 Y112.642 E.0104
G1 X123.308 Y112.651 E.00967
G1 X122.801 Y112.515 E.02599
G1 X121.874 Y112.057 E.05111
G1 X113.057 Y106.863 E.50626
G1 X112.948 Y112.397 E.27382
G1 X122.173 Y117.553 E.52276
G1 X123.153 Y118.193 E.05792
G1 X123.798 Y118.681 E.04001
G1 X123.925 Y118.872 E.01136
G1 X124.236 Y120.383 E.07634
G1 X124.236 Y118.178 E.10908
G1 X124.114 Y117.683 E.02522
G1 X124.054 Y117.186 E.02476
G1 X124.037 Y114.679 E.12406
G1 X124.069 Y113.677 E.04959
G1 X124.143 Y113.147 E.02644
G1 X124.246 Y112.638 E.0257
;WIDTH:0.629854
G1 X124.253 Y112.359 E.01334
;WIDTH:0.616774
G1 X124.253 Y106.26 E.28522
;WIDTH:0.656543
G1 X124.279 Y106.18 E.00418
;WIDTH:0.696311
G1 X124.305 Y106.101 E.00445
;WIDTH:0.736079
G1 X124.331 Y106.021 E.00473
;WIDTH:0.775847
G1 X124.358 Y105.942 E.005
G1 X124.509 Y105.883 E.00974
;WIDTH:0.727833
G1 X124.661 Y105.823 E.0091
;WIDTH:0.679819
G1 X124.813 Y105.764 E.00846
;WIDTH:0.631805
G1 X124.965 Y105.704 E.00782
;WIDTH:0.583791
G1 X124.966 Y105.704 E.00006
;WIDTH:0.591625
G1 X130.195 Y102.701 E.2696
;WIDTH:0.628905
G1 X130.373 Y102.649 E.00885
;WIDTH:0.649999
G1 X130.621 Y102.784 E.01397
G1 X130.985 Y103.096 E.02371
G1 X131.604 Y103.83 E.04754
G1 X134.499 Y107.82 E.24383
G1 X134.774 Y108.251 E.0253
G1 X135.237 Y109.166 E.05071
G1 X135.772 Y109.902 E.04505
G1 X135.772 Y108.937 E.04778
G1 X135.617 Y108.021 E.04594
G1 X135.577 Y107.409 E.03036
G1 X135.573 Y101.412 E.29663
G1 X135.58 Y100.912 E.02474
G1 X135.619 Y100.392 E.02579
G1 X135.71 Y99.882 E.02566
G1 X135.776 Y99.371 E.02548
G1 X135.87 Y99.187 E.01022
G1 X136.87 Y98.256 E.06759
G1 X135.091 Y99.286 E.10168
G1 X134.719 Y99.644 E.02553
G1 X134.314 Y99.94 E.02485
G1 X132.14 Y101.21 E.12452
G1 X131.254 Y101.686 E.04977
G1 X130.757 Y101.889 E.02654
G1 X130.258 Y102.053 E.02602
;WIDTH:0.628905
G1 X129.921 Y102.225 E.01805
;WIDTH:0.591625
G1 X124.696 Y105.235 E.2696
;WIDTH:0.625615
G1 X124.623 Y105.248 E.00354
;WIDTH:0.667438
G1 X124.55 Y105.261 E.0038
;WIDTH:0.709261
G1 X124.476 Y105.274 E.00405
;WIDTH:0.751084
G1 X124.403 Y105.287 E.0043
;WIDTH:0.792907
G1 X124.329 Y105.3 E.00456
G1 X124.203 Y105.202 E.00974
;WIDTH:0.748941
G1 X124.078 Y105.104 E.00917
;WIDTH:0.704975
G1 X123.952 Y105.006 E.0086
;WIDTH:0.661009
G1 X123.826 Y104.908 E.00803
;WIDTH:0.617042
G1 X115.74 Y100.219 E.43731
;WIDTH:0.582712
G1 X107.653 Y95.531 E.41116
;WIDTH:0.582254
G1 X107.391 Y95.452 E.01201
;WIDTH:0.616127
G1 X107.13 Y95.372 E.01277
;WIDTH:0.649999
G1 X106.868 Y95.293 E.01352
G1 X106.751 Y95.218 E.00688
G1 X106.669 Y95.041 E.00964
G1 X106.699 Y94.872 E.00851
G1 X106.799 Y94.757 E.00754
G1 X107.438 Y94.319 E.03834
G1 X124.409 Y84.481 E.9704
G1 X124.614 Y84.445 E.01028
G1 X124.713 Y84.481 E.00523
G1 X130.924 Y88.071 E.35486
G1 X131.053 Y88.219 E.00975
G1 X131.067 Y88.403 E.00909
