; generated by PrusaSlicer 2.5.0+MacOS-arm64 on 2022-11-14 at 14:25:54 UTC


;
;

;
;
; 

; external perimeters extrusion width = 0.65mm
; perimeters extrusion width = 0.65mm
; infill extrusion width = 0.65mm
; solid infill extrusion width = 0.65mm
; top infill extrusion width = 0.60mm
; first layer extrusion width = 0.65mm

M201 X2500 Y2500 Z200 E10000 ; sets maximum accelerations, mm/sec^2
M203 X12000 Y12000 Z720 E7200 ; sets maximum feedrates, mm / min
M204 P1500 T1500 ; sets acceleration (P, T), mm/sec^2
M566 X480.00 Y480.00 Z12.00 E150.00 ; sets the jerk limits, mm/min
M107
;TYPE:Custom
G0 X60 Y-3 Z80                         ; move extruder above bed
M568 P0 S160 A2                        ; pre-heat extruder to 160C
M140 S70    ; this will take the layer 1 temperature for bed 0
M190 S70    ; wait for bed temp
G32                                    ; execute bed.g (level gantry)
G29			                          ; perform mesh now.
G0 X0 Y-3 Z0.6                         ; go outside print area
M568 P0 S240 A2  ; set extruder temperature
M109 S240        ; wait for extruder temp
M98 P"0:/sys/primeLine.g"              ; execute primeline macro
G92 E0.0                               ; set extruder position
G21 ; set units to millimeters
G90 ; use absolute coordinates
M83 ; use relative distances for extrusion
;M572 D0 S0.08                          ; set pressure advanc
M107
;LAYER_CHANGE
;Z:0.2
;HEIGHT:0.2
;BEFORE_LAYER_CHANGE
;0.2
G92 E0
G1 E-1 F2100
G1 Z.2 F720
;AFTER_LAYER_CHANGE
;0.2
G1 Z.4
G1 X108.76 Y83.42 F12000
G1 Z.2 F720
G1 E1 F2100
M204 P1000
;TYPE:Skirt/Brim
;WIDTH:0.65
G1 F1800
G1 X109.134 Y82.933 E.03039
G1 X109.845 Y82.394 E.04415
G1 X110.447 Y82.116 E.03277
G1 X111.462 Y81.914 E.05121
G1 X138.538 Y81.914 E1.33941
G1 X139.553 Y82.116 E.05121
G1 X140.155 Y82.394 E.03277
G1 X140.866 Y82.933 E.04415
G1 X141.496 Y83.754 E.05121
G1 X145.382 Y92.456 E.47145
G1 X145.607 Y93.515 E.05355
G1 X145.607 Y130.5 E1.82962
G1 X144.843 Y132.343 E.09871
G1 X142.843 Y134.343 E.13992
G1 X141 Y135.107 E.09871
G1 X109 Y135.107 E1.58302
G1 X107.157 Y134.343 E.09871
G1 X105.157 Y132.343 E.13992
G1 X104.393 Y130.5 E.09871
G1 X104.393 Y93.515 E1.82962
G1 X104.618 Y92.456 E.05355
G1 X108.504 Y83.754 E.47145
G1 X108.723 Y83.468 E.01785
M204 P1500
; printing object Y-Idler Mount v13.stl id:0 copy 0
;WIPE_START
G1 F9600
G1 X109.134 Y82.933 E-.14014
G1 X109.845 Y82.394 E-.18548
G1 X110.447 Y82.116 E-.13766
G1 X111.462 Y81.914 E-.21513
G1 X112.769 Y81.914 E-.27158
;WIPE_END
G1 E-.05 F2100
G1 Z.4 F720
G1 X112.192 Y129.099 F12000
G1 Z.2 F720
G1 E1 F2100
M204 P1000
;TYPE:Perimeter
;WIDTH:0.649999
G1 F1800
G1 X112.379 Y129.129 E.00936
G1 X137.621 Y129.129 E1.24875
G1 X138.092 Y129.054 E.02359
G1 X138.498 Y128.85 E.02248
G1 X138.801 Y128.566 E.02054
G1 X139.061 Y128.091 E.0268
G1 X139.139 Y127.611 E.02403
G1 X139.139 Y90.095 E1.8559
G1 X140.861 Y93.969 E.20971
G1 X140.861 Y129.614 E1.76333
G1 X140.114 Y130.36 E.05225
G1 X109.886 Y130.36 E1.49535
G1 X109.139 Y129.614 E.05225
G1 X109.139 Y93.969 E1.76333
G1 X110.861 Y90.095 E.20971
G1 X110.861 Y127.611 E1.8559
G1 X110.939 Y128.091 E.02403
G1 X111.15 Y128.502 E.02286
G1 X111.502 Y128.85 E.0245
G1 X111.908 Y129.054 E.02248
G1 X112.132 Y129.09 E.01126
M204 P1500
G1 X112.285 Y128.507 F12000
M204 P1000
G1 F1800
G1 X112.379 Y128.522 E.00467
G1 X137.621 Y128.522 E1.24875
G1 X137.779 Y128.508 E.00781
G1 X138.148 Y128.354 E.01976
G1 X138.329 Y128.184 E.01232
G1 X138.485 Y127.899 E.01608
G1 X138.532 Y127.611 E.01442
G1 X138.532 Y87.234 E1.99742
G1 X141.468 Y93.84 E.3576
G1 X141.468 Y129.865 E1.78214
G1 X140.365 Y130.968 E.07713
G1 X109.635 Y130.968 E1.52023
G1 X108.532 Y129.865 E.07713
G1 X108.532 Y93.84 E1.78214
G1 X111.468 Y87.234 E.3576
G1 X111.468 Y127.611 E1.99742
G1 X111.482 Y127.768 E.00781
G1 X111.641 Y128.145 E.02025
G1 X111.852 Y128.354 E.0147
G1 X112.096 Y128.477 E.01349
G1 X112.226 Y128.497 E.00652
M204 P1500
G1 X112.91 Y127.915 F12000
M204 P1000
;TYPE:External perimeter
G1 F1800
G1 X137.621 Y127.915 E1.22244
G1 X137.674 Y127.91 E.0026
G1 X137.857 Y127.802 E.01053
G1 X137.925 Y127.611 E.01002
G1 X137.925 Y85.44 E2.08619
G1 X138.304 Y85.44 E.01873
G1 X138.442 Y85.536 E.00833
G1 X142.075 Y93.711 E.44255
G1 X142.075 Y130.116 E1.80096
G1 X140.617 Y131.575 E.10201
G1 X109.383 Y131.575 E1.54511
G1 X107.925 Y130.116 E.10201
G1 X107.925 Y93.711 E1.80096
G1 X111.525 Y85.61 E.43853
G1 X111.63 Y85.457 E.00919
G1 X112.075 Y85.44 E.02205
G1 X112.075 Y127.611 E2.08619
G1 X112.091 Y127.707 E.00481
G1 X112.203 Y127.859 E.00935
G1 X112.379 Y127.915 E.0091
G1 X112.85 Y127.915 E.02334
M204 P1500
G1 X113.101 Y128.266 F12000
;WIPE_START
G1 F9600
G1 X117.422 Y127.915 E-.95
;WIPE_END
G1 E-.05 F2100
G1 Z.4 F720
G1 X139.321 Y92.794 F12000
G1 Z.2 F720
G1 E1 F2100
M204 P1000
;TYPE:Solid infill
;WIDTH:0.652278
G1 F1800
G1 X140.256 Y93.73 E.06566
G1 X140.406 Y94.065 E.01824
G1 X140.406 Y94.74 E.03353
G1 X139.594 Y93.929 E.05696
G1 X139.594 Y94.791 E.04279
G1 X140.406 Y95.602 E.05696
G1 X140.406 Y96.464 E.04279
G1 X139.594 Y95.653 E.05696
G1 X139.594 Y96.515 E.04279
G1 X140.406 Y97.326 E.05696
G1 X140.406 Y98.188 E.04279
G1 X139.594 Y97.376 E.05696
G1 X139.594 Y98.238 E.04279
G1 X140.406 Y99.049 E.05696
G1 X140.406 Y99.911 E.04279
G1 X139.594 Y99.1 E.05696
G1 X139.594 Y99.962 E.04279
G1 X140.406 Y100.773 E.05696
G1 X140.406 Y101.635 E.04279
G1 X139.594 Y100.824 E.05696
G1 X139.594 Y101.685 E.04279
G1 X140.406 Y102.496 E.05696
G1 X140.406 Y103.358 E.04279
G1 X139.594 Y102.547 E.05696
G1 X139.594 Y103.409 E.04279
G1 X140.406 Y104.22 E.05696
G1 X140.406 Y105.082 E.04279
G1 X139.594 Y104.271 E.05696
G1 X139.594 Y105.132 E.04279
G1 X140.406 Y105.943 E.05696
G1 X140.406 Y106.805 E.04279
G1 X139.594 Y105.994 E.05696
G1 X139.594 Y106.856 E.04279
G1 X140.406 Y107.667 E.05696
G1 X140.406 Y108.529 E.04279
G1 X139.594 Y107.718 E.05696
G1 X139.594 Y108.579 E.04279
G1 X140.406 Y109.39 E.05696
G1 X140.406 Y110.252 E.04279
G1 X139.594 Y109.441 E.05696
G1 X139.594 Y110.303 E.04279
G1 X140.406 Y111.114 E.05696
G1 X140.406 Y111.976 E.04279
G1 X139.594 Y111.165 E.05696
G1 X139.594 Y112.026 E.04279
G1 X140.406 Y112.838 E.05696
G1 X140.406 Y113.699 E.04279
G1 X139.594 Y112.888 E.05696
G1 X139.594 Y113.75 E.04279
G1 X140.406 Y114.561 E.05696
G1 X140.406 Y115.423 E.04279
G1 X139.594 Y114.612 E.05696
G1 X139.594 Y115.473 E.04279
G1 X140.406 Y116.285 E.05696
G1 X140.406 Y117.146 E.04279
G1 X139.594 Y116.335 E.05696
G1 X139.594 Y117.197 E.04279
G1 X140.406 Y118.008 E.05696
G1 X140.406 Y118.87 E.04279
G1 X139.594 Y118.059 E.05696
G1 X139.594 Y118.921 E.04279
G1 X140.406 Y119.732 E.05696
G1 X140.406 Y120.593 E.04279
G1 X139.594 Y119.782 E.05696
G1 X139.594 Y120.644 E.04279
G1 X140.406 Y121.455 E.05696
G1 X140.406 Y122.317 E.04279
G1 X139.594 Y121.506 E.05696
G1 X139.594 Y122.368 E.04279
G1 X140.406 Y123.179 E.05696
G1 X140.406 Y124.04 E.04279
G1 X139.594 Y123.229 E.05696
G1 X139.594 Y124.091 E.04279
G1 X140.406 Y124.902 E.05696
G1 X140.406 Y125.764 E.04279
G1 X139.594 Y124.953 E.05696
G1 X139.594 Y125.815 E.04279
G1 X140.406 Y126.626 E.05696
G1 X140.406 Y127.487 E.04279
G1 X139.594 Y126.676 E.05696
G1 X139.594 Y127.538 E.04279
G1 X140.406 Y128.349 E.05696
G1 X140.406 Y129.211 E.04279
G1 X139.473 Y128.278 E.0655
G1 X139.225 Y128.761 E.02695
G1 X139.168 Y128.835 E.00464
G1 X140.082 Y129.749 E.06415
G1 X139.925 Y129.905 E.01098
G1 X139.376 Y129.905 E.02727
G1 X138.717 Y129.246 E.0463
G1 X138.24 Y129.486 E.02652
G1 X138.124 Y129.515 E.00593
G1 X138.514 Y129.905 E.02743
G1 X137.653 Y129.905 E.04279
G1 X137.332 Y129.584 E.02255
G1 X136.47 Y129.584 E.04279
G1 X136.791 Y129.905 E.02255
G1 X135.929 Y129.905 E.04279
G1 X135.608 Y129.584 E.02255
G1 X134.746 Y129.584 E.04279
G1 X135.067 Y129.905 E.02255
G1 X134.206 Y129.905 E.04279
G1 X133.885 Y129.584 E.02255
G1 X133.023 Y129.584 E.04279
G1 X133.344 Y129.905 E.02255
G1 X132.482 Y129.905 E.04279
G1 X132.161 Y129.584 E.02255
G1 X131.299 Y129.584 E.04279
G1 X131.62 Y129.905 E.02255
G1 X130.759 Y129.905 E.04279
G1 X130.437 Y129.584 E.02255
G1 X129.576 Y129.584 E.04279
G1 X129.897 Y129.905 E.02255
G1 X129.035 Y129.905 E.04279
G1 X128.714 Y129.584 E.02255
G1 X127.852 Y129.584 E.04279
G1 X128.173 Y129.905 E.02255
G1 X127.312 Y129.905 E.04279
G1 X126.99 Y129.584 E.02255
G1 X126.129 Y129.584 E.04279
G1 X126.45 Y129.905 E.02255
G1 X125.588 Y129.905 E.04279
G1 X125.267 Y129.584 E.02255
G1 X124.405 Y129.584 E.04279
G1 X124.726 Y129.905 E.02255
G1 X123.864 Y129.905 E.04279
G1 X123.543 Y129.584 E.02255
G1 X122.682 Y129.584 E.04279
G1 X123.003 Y129.905 E.02255
G1 X122.141 Y129.905 E.04279
G1 X121.82 Y129.584 E.02255
G1 X120.958 Y129.584 E.04279
G1 X121.279 Y129.905 E.02255
G1 X120.417 Y129.905 E.04279
G1 X120.096 Y129.584 E.02255
G1 X119.235 Y129.584 E.04279
G1 X119.556 Y129.905 E.02255
G1 X118.694 Y129.905 E.04279
G1 X118.373 Y129.584 E.02255
G1 X117.511 Y129.584 E.04279
G1 X117.832 Y129.905 E.02255
G1 X116.97 Y129.905 E.04279
G1 X116.649 Y129.584 E.02255
G1 X115.788 Y129.584 E.04279
G1 X116.109 Y129.905 E.02255
G1 X115.247 Y129.905 E.04279
G1 X114.926 Y129.584 E.02255
G1 X114.064 Y129.584 E.04279
G1 X114.385 Y129.905 E.02255
G1 X113.523 Y129.905 E.04279
G1 X112.929 Y129.311 E.04173
M204 P1500
;WIPE_START
G1 F9600
G1 X113.523 Y129.905 E-.17465
G1 X114.385 Y129.905 E-.17909
G1 X114.064 Y129.584 E-.09436
G1 X114.926 Y129.584 E-.17908
G1 X115.247 Y129.905 E-.09436
G1 X116.109 Y129.905 E-.17908
G1 X115.941 Y129.737 E-.04936
;WIPE_END
G1 E-.05 F2100
G1 Z.4 F720
G1 X110.679 Y93.452 F12000
G1 Z.2 F720
G1 E1 F2100
M204 P1000
G1 F1800
G1 X110.117 Y92.89 E.03946
G1 X109.852 Y93.487 E.03242
G1 X110.406 Y94.04 E.0389
G1 X110.406 Y94.902 E.04279
G1 X109.594 Y94.091 E.05696
G1 X109.594 Y94.953 E.04279
G1 X110.406 Y95.764 E.05696
G1 X110.406 Y96.626 E.04279
G1 X109.594 Y95.815 E.05696
G1 X109.594 Y96.676 E.04279
G1 X110.406 Y97.487 E.05696
G1 X110.406 Y98.349 E.04279
G1 X109.594 Y97.538 E.05696
G1 X109.594 Y98.4 E.04279
G1 X110.406 Y99.211 E.05696
G1 X110.406 Y100.073 E.04279
G1 X109.594 Y99.262 E.05696
G1 X109.594 Y100.123 E.04279
G1 X110.406 Y100.935 E.05696
G1 X110.406 Y101.796 E.04279
G1 X109.594 Y100.985 E.05696
G1 X109.594 Y101.847 E.04279
G1 X110.406 Y102.658 E.05696
G1 X110.406 Y103.52 E.04279
G1 X109.594 Y102.709 E.05696
G1 X109.594 Y103.57 E.04279
G1 X110.406 Y104.382 E.05696
G1 X110.406 Y105.243 E.04279
G1 X109.594 Y104.432 E.05696
G1 X109.594 Y105.294 E.04279
G1 X110.406 Y106.105 E.05696
G1 X110.406 Y106.967 E.04279
G1 X109.594 Y106.156 E.05696
G1 X109.594 Y107.018 E.04279
G1 X110.406 Y107.829 E.05696
G1 X110.406 Y108.69 E.04279
G1 X109.594 Y107.879 E.05696
G1 X109.594 Y108.741 E.04279
G1 X110.406 Y109.552 E.05696
G1 X110.406 Y110.414 E.04279
G1 X109.594 Y109.603 E.05696
G1 X109.594 Y110.465 E.04279
G1 X110.406 Y111.276 E.05696
G1 X110.406 Y112.137 E.04279
G1 X109.594 Y111.326 E.05696
G1 X109.594 Y112.188 E.04279
G1 X110.406 Y112.999 E.05696
G1 X110.406 Y113.861 E.04279
G1 X109.594 Y113.05 E.05696
G1 X109.594 Y113.912 E.04279
G1 X110.406 Y114.723 E.05696
G1 X110.406 Y115.584 E.04279
G1 X109.594 Y114.773 E.05696
G1 X109.594 Y115.635 E.04279
G1 X110.406 Y116.446 E.05696
G1 X110.406 Y117.308 E.04279
G1 X109.594 Y116.497 E.05696
G1 X109.594 Y117.359 E.04279
G1 X110.406 Y118.17 E.05696
G1 X110.406 Y119.032 E.04279
G1 X109.594 Y118.22 E.05696
G1 X109.594 Y119.082 E.04279
G1 X110.406 Y119.893 E.05696
G1 X110.406 Y120.755 E.04279
G1 X109.594 Y119.944 E.05696
G1 X109.594 Y120.806 E.04279
G1 X110.406 Y121.617 E.05696
G1 X110.406 Y122.479 E.04279
G1 X109.594 Y121.667 E.05696
G1 X109.594 Y122.529 E.04279
G1 X110.406 Y123.34 E.05696
G1 X110.406 Y124.202 E.04279
G1 X109.594 Y123.391 E.05696
G1 X109.594 Y124.253 E.04279
G1 X110.406 Y125.064 E.05696
G1 X110.406 Y125.926 E.04279
G1 X109.594 Y125.115 E.05696
G1 X109.594 Y125.976 E.04279
G1 X110.679 Y127.061 E.07614
M204 P1500
;WIPE_START
G1 F9600
G1 X109.594 Y125.976 E-.31866
G1 X109.594 Y125.115 E-.17908
G1 X110.406 Y125.926 E-.23837
G1 X110.406 Y125.064 E-.17908
G1 X110.287 Y124.945 E-.0348
;WIPE_END
G1 E-.05 F2100
G1 Z.4 F720
G1 X109.321 Y126.565 F12000
G1 Z.2 F720
G1 E1 F2100
M204 P1000
G1 F1800
G1 X110.409 Y127.652 E.07635
G1 X110.435 Y127.951 E.0149
G1 X110.508 Y128.24 E.01482
G1 X110.775 Y128.761 E.02907
G1 X110.85 Y128.859 E.00612
G1 X111.239 Y129.223 E.02645
G1 X111.766 Y129.489 E.02933
G1 X112.336 Y129.579 E.02862
G1 X112.662 Y129.905 E.02289
G1 X111.8 Y129.905 E.04279
G1 X109.594 Y127.7 E.15487
G1 X109.594 Y128.562 E.04279
G1 X110.938 Y129.905 E.09435
G1 X110.076 Y129.905 E.04279
G1 X109.321 Y129.15 E.05302
M204 P1500
;WIPE_START
G1 F9600
G1 X110.076 Y129.905 E-.22189
G1 X110.938 Y129.905 E-.17908
G1 X109.594 Y128.562 E-.39487
G1 X109.594 Y127.82 E-.15415
;WIPE_END
G1 E-.05 F2100
G1 Z.4 F720
G1 X113.574 Y126.415 F12000
G1 Z.2 F720
G1 E1 F2100
M204 P1000
;TYPE:External perimeter
;WIDTH:0.543429
G1 F1800
G1 X113.556 Y126.113 E.01234
;WIDTH:0.506796
G1 X113.538 Y125.811 E.01144
;WIDTH:0.471439
G1 X113.536 Y99.678 E.91253
;WIDTH:0.520317
G1 X113.56 Y99.474 E.00802
;WIDTH:0.569195
G1 X113.585 Y99.269 E.00884
;WIDTH:0.611612
G1 X113.61 Y99.2 E.00339
;WIDTH:0.654029
G1 X113.635 Y99.132 E.00364
;WIDTH:0.696445
G1 X113.66 Y99.063 E.00389
;WIDTH:0.738862
G1 X113.685 Y98.994 E.00415
;WIDTH:0.781278
G1 X113.71 Y98.925 E.0044
G1 X113.708 Y98.816 E.00658
;WIDTH:0.765165
G1 X113.708 Y98.526 E.01705
;WIDTH:0.733891
G1 X113.708 Y98.237 E.01631
;WIDTH:0.708433
G1 X113.664 Y97.415 E.04462
G1 X113.642 Y97.357 E.00336
;WIDTH:0.670608
G1 X113.62 Y97.299 E.00317
;WIDTH:0.632783
G1 X113.597 Y97.241 E.00298
;WIDTH:0.594958
G1 X113.574 Y97.11 E.006
;WIDTH:0.547012
G1 X113.55 Y96.979 E.00548
;WIDTH:0.499066
G1 X113.526 Y96.848 E.00496
;WIDTH:0.45112
G1 X113.502 Y96.716 E.00444
;WIDTH:0.403173
G1 X113.499 Y89.601 E.20889
;WIDTH:0.397557
G1 X113.499 Y89.302 E.00862
G1 X113.522 Y89.216 E.0026
G1 X113.575 Y89.239 E.00169
G1 X113.708 Y89.399 E.006
G1 X113.853 Y89.474 E.00473
G1 X113.853 Y89.6 E.00365
;WIDTH:0.403173
G1 X113.862 Y96.716 E.20889
;WIDTH:0.45112
G1 X113.886 Y96.782 E.00232
;WIDTH:0.499066
G1 X113.91 Y96.847 E.0026
;WIDTH:0.547012
G1 X113.934 Y96.913 E.00287
;WIDTH:0.594958
G1 X113.958 Y96.979 E.00314
;WIDTH:0.632783
G1 X114.002 Y97.011 E.00264
;WIDTH:0.670608
G1 X114.046 Y97.044 E.00281
;WIDTH:0.708433
G1 X114.09 Y97.077 E.00298
G1 X114.327 Y97.147 E.0134
G1 X114.336 Y97.723 E.03124
;WIDTH:0.707566
G1 X114.369 Y98.255 E.02891
;WIDTH:0.744422
G1 X114.4 Y98.545 E.01663
;WIDTH:0.781278
G1 X114.43 Y98.834 E.0175
G1 X114.489 Y98.855 E.00375
;WIDTH:0.737975
G1 X114.547 Y98.876 E.00353
;WIDTH:0.694672
G1 X114.606 Y98.897 E.00331
;WIDTH:0.651369
G1 X114.665 Y98.918 E.00309
;WIDTH:0.608066
G1 X114.723 Y98.939 E.00287
;WIDTH:0.564763
G1 X114.782 Y98.96 E.00265
;WIDTH:0.52146
G1 X135.218 Y98.96 E.79692
;WIDTH:0.564763
G1 X135.277 Y98.939 E.00265
;WIDTH:0.608066
G1 X135.335 Y98.918 E.00287
;WIDTH:0.651369
G1 X135.394 Y98.897 E.00309
;WIDTH:0.694672
G1 X135.453 Y98.876 E.00331
;WIDTH:0.737975
G1 X135.511 Y98.855 E.00353
;WIDTH:0.781278
G1 X135.57 Y98.834 E.00375
G1 X135.575 Y98.779 E.00332
;WIDTH:0.765166
G1 X135.603 Y98.502 E.01641
;WIDTH:0.734122
G1 X135.632 Y98.224 E.0157
;WIDTH:0.703078
G1 X135.665 Y97.703 E.02812
;WIDTH:0.708433
G1 X135.673 Y97.147 E.03016
G1 X135.91 Y97.077 E.0134
G1 X135.952 Y97.046 E.00284
;WIDTH:0.673656
G1 X135.995 Y97.015 E.00269
;WIDTH:0.638879
G1 X136.037 Y96.985 E.00254
;WIDTH:0.604101
G1 X136.057 Y96.931 E.00263
;WIDTH:0.563916
G1 X136.078 Y96.877 E.00244
;WIDTH:0.52373
G1 X136.098 Y96.824 E.00225
;WIDTH:0.483545
G1 X136.118 Y96.77 E.00206
;WIDTH:0.443359
G1 X136.138 Y96.716 E.00187
;WIDTH:0.403173
G1 X136.147 Y89.6 E.20889
;WIDTH:0.397557
G1 X136.147 Y89.474 E.00365
G1 X136.238 Y89.445 E.00276
G1 X136.391 Y89.273 E.00667
G1 X136.478 Y89.216 E.00301
G1 X136.501 Y89.601 E.01115
;WIDTH:0.403173
G1 X136.498 Y96.716 E.20889
;WIDTH:0.405902
G1 X136.497 Y96.778 E.00184
;WIDTH:0.449121
G1 X136.474 Y96.869 E.0031
;WIDTH:0.49234
G1 X136.451 Y96.96 E.00344
;WIDTH:0.535559
G1 X136.428 Y97.051 E.00377
;WIDTH:0.578777
G1 X136.405 Y97.142 E.0041
;WIDTH:0.621996
