; generated by PrusaSlicer 2.5.0+MacOS-arm64 on 2022-11-14 at 14:12:23 UTC


;
;

;
;
; 

; external perimeters extrusion width = 0.65mm
; perimeters extrusion width = 0.65mm
; infill extrusion width = 0.65mm
; solid infill extrusion width = 0.65mm
; top infill extrusion width = 0.60mm
; first layer extrusion width = 0.65mm

M201 X2500 Y2500 Z200 E10000 ; sets maximum accelerations, mm/sec^2
M203 X12000 Y12000 Z720 E7200 ; sets maximum feedrates, mm / min
M204 P1500 T1500 ; sets acceleration (P, T), mm/sec^2
M566 X480.00 Y480.00 Z12.00 E150.00 ; sets the jerk limits, mm/min
M107
;TYPE:Custom
G0 X60 Y-3 Z80                         ; move extruder above bed
M568 P0 S160 A2                        ; pre-heat extruder to 160C
M140 S70    ; this will take the layer 1 temperature for bed 0
M190 S70    ; wait for bed temp
G32                                    ; execute bed.g (level gantry)
G29			                          ; perform mesh now.
G0 X0 Y-3 Z0.6                         ; go outside print area
M568 P0 S240 A2  ; set extruder temperature
M109 S240        ; wait for extruder temp
M98 P"0:/sys/primeLine.g"              ; execute primeline macro
G92 E0.0                               ; set extruder position
G21 ; set units to millimeters
G90 ; use absolute coordinates
M83 ; use relative distances for extrusion
;M572 D0 S0.08                          ; set pressure advanc
M107
;LAYER_CHANGE
;Z:0.2
;HEIGHT:0.2
;BEFORE_LAYER_CHANGE
;0.2
G92 E0
G1 E-1 F2100
G1 Z.2 F720
;AFTER_LAYER_CHANGE
;0.2
G1 Z.4
G1 X114.182 Y93.44 F12000
G1 Z.2 F720
G1 E1 F2100
M204 P1000
;TYPE:Skirt/Brim
;WIDTH:0.65
G1 F1800
G1 X114.922 Y92.729 E.05076
G1 X115.699 Y92.305 E.04377
G1 X116.697 Y92.067 E.05076
G1 X127.694 Y92.052 E.54402
G1 X128.451 Y92.133 E.03765
G1 X129.059 Y92.295 E.03113
G1 X129.717 Y92.587 E.0356
G1 X130.278 Y92.96 E.03333
G1 X130.804 Y93.475 E.03643
G1 X131.195 Y94.047 E.03427
G1 X131.457 Y94.663 E.03311
G1 X131.581 Y95.221 E.02829
G1 X131.611 Y114.343 E.94592
G1 X131.533 Y115.052 E.03531
G1 X131.27 Y115.807 E.03953
G1 X130.759 Y116.578 E.0458
G1 X129.971 Y117.261 E.05155
G1 X129.059 Y117.705 E.0502
G1 X128.117 Y117.919 E.04778
G1 X117.025 Y117.95 E.54871
G1 X116.189 Y117.85 E.04165
G1 X115.36 Y117.54 E.04377
G1 X114.527 Y116.942 E.05076
G1 X113.896 Y116.133 E.05076
G1 X113.623 Y115.535 E.03249
G1 X113.425 Y114.529 E.05076
G1 X113.418 Y95.657 E.93354
G1 X113.518 Y94.821 E.04165
G1 X113.827 Y93.993 E.04376
G1 X114.15 Y93.491 E.02952
M204 P1500
; printing object y-idler-tensioner.stl id:0 copy 0
;WIPE_START
G1 F9600
G1 X114.922 Y92.729 E-.22539
G1 X115.699 Y92.305 E-.18386
G1 X116.697 Y92.067 E-.21324
G1 X118.273 Y92.065 E-.32751
;WIPE_END
G1 E-.05 F2100
G1 Z.4 F720
G1 X117.764 Y113.603 F12000
G1 Z.2 F720
G1 E1 F2100
M204 P1000
;TYPE:Perimeter
;WIDTH:0.649999
G1 F1800
G1 X117.764 Y96.397 E.85119
G1 X126.864 Y96.397 E.45016
G1 X126.864 Y113.599 E.85098
G1 X117.824 Y113.603 E.4472
M204 P1500
G1 X117.157 Y114.21 F12000
M204 P1000
G1 F1800
G1 X117.157 Y95.789 E.91127
G1 X127.101 Y95.79 E.4919
G1 X127.471 Y95.86 E.01865
G1 X127.471 Y114.15 E.90481
G1 X127.249 Y114.206 E.01133
G1 X117.217 Y114.21 E.49627
M204 P1500
G1 X116.629 Y114.597 F12000
M204 P1000
;TYPE:External perimeter
G1 F1800
G1 X116.55 Y114.313 E.01461
G1 X116.55 Y95.697 E.92087
G1 X116.603 Y95.452 E.01242
G1 X116.771 Y95.261 E.01257
G1 X117.055 Y95.182 E.01461
G1 X127.101 Y95.183 E.49695
G1 X127.477 Y95.226 E.01874
G1 X127.797 Y95.342 E.01681
G1 X128.032 Y95.54 E.01521
G1 X128.078 Y95.707 E.00859
G1 X128.078 Y113.967 E.90329
G1 X128.061 Y114.352 E.01908
G1 X127.972 Y114.534 E.01001
G1 X127.747 Y114.698 E.01378
G1 X127.292 Y114.813 E.02323
G1 X117.127 Y114.818 E.50287
G1 X116.82 Y114.765 E.01539
G1 X116.674 Y114.637 E.0096
M204 P1500
G1 X116.766 Y114.336 F12000
;WIPE_START
G1 F9600
G1 X116.55 Y114.313 E-.07214
G1 X116.55 Y110.088 E-.87786
;WIPE_END
G1 E-.05 F2100
G1 Z.4 F720
G1 X126.682 Y97.848 F12000
G1 Z.2 F720
G1 E1 F2100
M204 P1000
;TYPE:Solid infill
;WIDTH:0.669537
G1 F1800
G1 X125.687 Y96.852 E.07188
G1 X124.8 Y96.852 E.04525
G1 X126.409 Y98.461 E.11615
G1 X126.409 Y99.347 E.04525
G1 X123.914 Y96.852 E.18015
G1 X123.028 Y96.852 E.04525
G1 X126.409 Y100.233 E.24414
G1 X126.409 Y101.119 E.04525
G1 X122.142 Y96.852 E.30813
G1 X121.256 Y96.852 E.04525
G1 X126.409 Y102.005 E.37213
G1 X126.409 Y102.891 E.04525
G1 X120.369 Y96.852 E.43612
G1 X119.483 Y96.852 E.04525
G1 X126.409 Y103.778 E.50012
G1 X126.409 Y104.664 E.04525
G1 X118.597 Y96.852 E.56411
G1 X118.22 Y96.852 E.01927
G1 X118.22 Y97.361 E.02598
G1 X126.409 Y105.55 E.59136
G1 X126.409 Y106.436 E.04525
G1 X118.22 Y98.247 E.59136
G1 X118.22 Y99.133 E.04525
G1 X126.409 Y107.322 E.59136
G1 X126.409 Y108.208 E.04525
G1 X118.22 Y100.019 E.59136
G1 X118.22 Y100.905 E.04525
G1 X126.409 Y109.095 E.59136
G1 X126.409 Y109.981 E.04525
G1 X118.22 Y101.792 E.59136
G1 X118.22 Y102.678 E.04525
G1 X126.409 Y110.867 E.59136
G1 X126.409 Y111.753 E.04525
G1 X118.22 Y103.564 E.59136
G1 X118.22 Y104.45 E.04525
G1 X126.409 Y112.639 E.59136
G1 X126.409 Y113.144 E.02577
G1 X126.028 Y113.144 E.01947
G1 X118.22 Y105.336 E.56383
G1 X118.22 Y106.222 E.04525
G1 X125.142 Y113.145 E.49986
G1 X124.256 Y113.145 E.04523
G1 X118.22 Y107.109 E.4359
G1 X118.22 Y107.995 E.04525
G1 X123.37 Y113.145 E.37193
G1 X122.485 Y113.146 E.04523
G1 X118.22 Y108.881 E.30797
G1 X118.22 Y109.767 E.04525
G1 X121.599 Y113.146 E.24401
G1 X120.713 Y113.147 E.04523
G1 X118.22 Y110.653 E.18004
G1 X118.22 Y111.539 E.04525
G1 X119.827 Y113.147 E.11608
G1 X118.941 Y113.147 E.04523
G1 X117.947 Y112.152 E.07184
M204 P1500
; stop printing object y-idler-tensioner.stl id:0 copy 0
;LAYER_CHANGE
;Z:0.4
;HEIGHT:0.2
;BEFORE_LAYER_CHANGE
;0.4
G92 E0
;WIPE_START
G1 F9600
G1 X118.941 Y113.147 E-.29239
G1 X119.827 Y113.147 E-.18408
G1 X118.22 Y111.539 E-.47242
G1 X118.22 Y111.534 E-.00111
;WIPE_END
G1 E-.05 F2100
G1 Z.4 F720
;AFTER_LAYER_CHANGE
;0.4
G10 S250 P0 ; set temperature
G1 Z.6
G1 X113.424 Y111.536 F12000
G1 Z.4 F720
G1 E1 F2100
;TYPE:Skirt/Brim
;WIDTH:0.65
G1 F2169
G1 X113.418 Y95.657 E.78549
G1 X113.518 Y94.821 E.04165
G1 X113.827 Y93.993 E.04376
G1 X114.182 Y93.44 E.03249
G1 X114.922 Y92.729 E.05076
G1 X115.699 Y92.305 E.04377
G1 X116.697 Y92.067 E.05076
G1 X127.694 Y92.052 E.54402
G1 X128.451 Y92.133 E.03765
G1 X129.059 Y92.295 E.03113
G1 X129.717 Y92.587 E.0356
G1 X130.278 Y92.96 E.03333
G1 X130.804 Y93.475 E.03643
G1 X131.195 Y94.047 E.03427
G1 X131.457 Y94.663 E.03311
G1 X131.581 Y95.221 E.02829
G1 X131.611 Y114.343 E.94592
G1 X131.533 Y115.052 E.03531
G1 X131.27 Y115.807 E.03953
G1 X130.759 Y116.578 E.0458
G1 X129.971 Y117.261 E.05155
G1 X129.059 Y117.705 E.0502
G1 X128.117 Y117.919 E.04778
G1 X117.025 Y117.95 E.54871
G1 X116.189 Y117.85 E.04165
G1 X115.36 Y117.54 E.04377
G1 X114.527 Y116.942 E.05076
G1 X113.896 Y116.133 E.05076
G1 X113.623 Y115.535 E.03249
G1 X113.425 Y114.529 E.05076
G1 X113.424 Y111.596 E.14508
; printing object y-idler-tensioner.stl id:0 copy 0
;WIPE_START
G1 F9600
G1 X113.422 Y107.024 E-.95
;WIPE_END
G1 E-.05 F2100
G1 Z.6 F720
G1 X117.564 Y113.803 F12000
G1 Z.4 F720
G1 E1 F2100
;TYPE:Perimeter
;WIDTH:0.649999
G1 F2169
G1 X117.564 Y96.197 E.87098
G1 X127.264 Y96.198 E.47984
G1 X127.264 Y113.799 E.87071
G1 X117.624 Y113.803 E.47688
G1 X116.995 Y114.382 F12000
G1 F2169
G1 X116.957 Y114.276 E.00558
G1 X116.957 Y95.776 E.91516
G1 X116.985 Y95.627 E.00752
G1 X117.092 Y95.589 E.00558
G1 X127.312 Y95.591 E.50558
G1 X127.616 Y95.63 E.01514
G1 X127.871 Y95.755 E.01409
G1 X127.871 Y114.209 E.91288
G1 X127.812 Y114.304 E.00556
G1 X127.435 Y114.406 E.01932
G1 X117.144 Y114.41 E.50909
G1 X117.054 Y114.394 E.00454
G1 X116.423 Y114.624 F12000
;TYPE:External perimeter
G1 F2169
G1 X116.35 Y114.319 E.01552
G1 X116.35 Y95.776 E.91731
G1 X116.399 Y95.467 E.01549
G1 X116.518 Y95.218 E.01367
G1 X116.743 Y95.055 E.01375
G1 X117.048 Y94.982 E.01552
G1 X127.312 Y94.984 E.50773
G1 X127.842 Y95.05 E.02642
G1 X128.208 Y95.227 E.02013
G1 X128.414 Y95.447 E.01487
G1 X128.478 Y95.679 E.01192
G1 X128.478 Y114.198 E.91611
G1 X128.41 Y114.559 E.0182
G1 X128.209 Y114.764 E.0142
G1 X127.94 Y114.91 E.01511
G1 X127.488 Y115.013 E.02295
G1 X117.144 Y115.018 E.5117
G1 X116.835 Y114.969 E.01549
G1 X116.585 Y114.85 E.01366
G1 X116.458 Y114.673 E.01079
G1 X116.6 Y114.365 F12000
;WIPE_START
G1 F9600
G1 X116.35 Y114.319 E-.07687
G1 X116.35 Y110.118 E-.87313
;WIPE_END
G1 E-.05 F2100
G1 Z.6 F720
G1 X125.851 Y113.618 F12000
G1 Z.4 F720
G1 E1 F2100
;TYPE:Solid infill
;WIDTH:0.651837
G1 F2169
G1 X126.809 Y112.659 E.06725
G1 X126.809 Y111.798 E.04273
G1 X125.262 Y113.345 E.10853
G1 X124.401 Y113.345 E.04275
G1 X126.809 Y110.937 E.16898
G1 X126.809 Y110.076 E.04273
G1 X123.539 Y113.345 E.22944
G1 X122.678 Y113.346 E.04275
G1 X126.809 Y109.215 E.28989
G1 X126.809 Y108.353 E.04273
G1 X121.816 Y113.346 E.35034
G1 X120.955 Y113.346 E.04275
G1 X126.809 Y107.492 E.41079
G1 X126.809 Y106.631 E.04273
G1 X120.093 Y113.347 E.47125
G1 X119.232 Y113.347 E.04275
G1 X126.809 Y105.77 E.5317
G1 X126.809 Y104.909 E.04273
G1 X118.37 Y113.348 E.59215
G1 X118.02 Y113.348 E.0174
G1 X118.02 Y112.837 E.02534
G1 X126.809 Y104.048 E.61676
G1 X126.809 Y103.187 E.04273
G1 X118.02 Y111.976 E.61676
G1 X118.02 Y111.115 E.04273
G1 X126.809 Y102.326 E.61676
G1 X126.809 Y101.464 E.04273
G1 X118.02 Y110.254 E.61676
G1 X118.02 Y109.392 E.04273
G1 X126.809 Y100.603 E.61676
G1 X126.809 Y99.742 E.04273
G1 X118.02 Y108.531 E.61676
G1 X118.02 Y107.67 E.04273
G1 X126.809 Y98.881 E.61676
G1 X126.809 Y98.02 E.04273
G1 X118.02 Y106.809 E.61676
G1 X118.02 Y105.948 E.04273
G1 X126.809 Y97.159 E.61676
G1 X126.809 Y96.653 E.02507
G1 X126.453 Y96.653 E.01765
G1 X118.02 Y105.087 E.59179
G1 X118.02 Y104.226 E.04273
G1 X125.592 Y96.653 E.53137
G1 X124.731 Y96.653 E.04272
G1 X118.02 Y103.365 E.47095
G1 X118.02 Y102.503 E.04273
G1 X123.87 Y96.653 E.41054
G1 X123.009 Y96.653 E.04272
G1 X118.02 Y101.642 E.35012
G1 X118.02 Y100.781 E.04273
G1 X122.148 Y96.653 E.2897
G1 X121.287 Y96.653 E.04272
G1 X118.02 Y99.92 E.22928
G1 X118.02 Y99.059 E.04273
G1 X120.426 Y96.652 E.16886
G1 X119.565 Y96.652 E.04272
G1 X118.02 Y98.198 E.10844
G1 X118.02 Y97.337 E.04273
G1 X118.977 Y96.379 E.06719
; stop printing object y-idler-tensioner.stl id:0 copy 0
;LAYER_CHANGE
;Z:0.6
;HEIGHT:0.2
;BEFORE_LAYER_CHANGE
;0.6
G92 E0
;WIPE_START
G1 F9600
G1 X118.02 Y97.337 E-.28142
G1 X118.02 Y98.198 E-.17896
G1 X119.565 Y96.652 E-.45419
G1 X119.736 Y96.652 E-.03544
;WIPE_END
G1 E-.05 F2100
G1 Z.6 F720
;AFTER_LAYER_CHANGE
;0.6
G1 Z.8
G1 X119.73 Y92.063 F12000
G1 Z.6 F720
G1 E1 F2100
;TYPE:Skirt/Brim
;WIDTH:0.65
G1 F2205
G1 X127.694 Y92.052 E.394
G1 X128.451 Y92.133 E.03765
G1 X129.059 Y92.295 E.03113
G1 X129.717 Y92.587 E.0356
G1 X130.278 Y92.96 E.03333
G1 X130.804 Y93.475 E.03643
G1 X131.195 Y94.047 E.03427
G1 X131.457 Y94.663 E.03311
G1 X131.581 Y95.221 E.02829
G1 X131.611 Y114.343 E.94592
G1 X131.533 Y115.052 E.03531
G1 X131.27 Y115.807 E.03953
G1 X130.759 Y116.578 E.0458
G1 X129.971 Y117.261 E.05155
G1 X129.059 Y117.705 E.0502
G1 X128.117 Y117.919 E.04778
G1 X117.025 Y117.95 E.54871
G1 X116.189 Y117.85 E.04165
G1 X115.36 Y117.54 E.04377
G1 X114.527 Y116.942 E.05076
G1 X113.896 Y116.133 E.05076
G1 X113.623 Y115.535 E.03249
G1 X113.425 Y114.529 E.05076
G1 X113.418 Y95.657 E.93354
G1 X113.518 Y94.821 E.04165
G1 X113.827 Y93.993 E.04376
G1 X114.182 Y93.44 E.03249
G1 X114.922 Y92.729 E.05076
G1 X115.699 Y92.305 E.04377
G1 X116.697 Y92.067 E.05076
G1 X119.67 Y92.063 E.14705
; printing object y-idler-tensioner.stl id:0 copy 0
;WIPE_START
G1 F9600
G1 X124.241 Y92.057 E-.95
;WIPE_END
G1 E-.05 F2100
G1 Z.8 F720
G1 X117.564 Y113.803 F12000
G1 Z.6 F720
G1 E1 F2100
;TYPE:Perimeter
;WIDTH:0.649999
G1 F2205
G1 X117.564 Y96.197 E.87098
G1 X127.464 Y96.199 E.48974
G1 X127.464 Y113.799 E.87067
G1 X117.624 Y113.803 E.48677
G1 X116.995 Y114.383 F12000
G1 F2205
G1 X116.957 Y114.276 E.00559
G1 X116.957 Y95.756 E.91615
G1 X116.985 Y95.627 E.00655
G1 X117.092 Y95.589 E.00558
G1 X127.53 Y95.592 E.51639
G1 X127.815 Y95.63 E.01421
G1 X128.071 Y95.753 E.01406
G1 X128.071 Y114.246 E.91482
G1 X127.986 Y114.316 E.00547
G1 X127.647 Y114.406 E.01735
G1 X117.144 Y114.41 E.51957
G1 X117.054 Y114.394 E.00454
G1 X116.423 Y114.625 F12000
;TYPE:External perimeter
G1 F2205
G1 X116.35 Y114.319 E.01553
G1 X116.35 Y95.691 E.92153
G1 X116.399 Y95.467 E.01134
G1 X116.518 Y95.218 E.01367
G1 X116.743 Y95.055 E.01375
G1 X117.048 Y94.982 E.01552
G1 X127.531 Y94.985 E.51854
G1 X128.046 Y95.051 E.02569
G1 X128.417 Y95.234 E.02046
G1 X128.611 Y95.441 E.01404
G1 X128.678 Y95.678 E.01219
G1 X128.678 Y114.246 E.91854
G1 X128.639 Y114.493 E.01239
G1 X128.461 Y114.734 E.01483
G1 X128.137 Y114.912 E.01828
G1 X127.687 Y115.013 E.02279
G1 X117.144 Y115.018 E.52155
G1 X116.836 Y114.969 E.01545
G1 X116.585 Y114.85 E.01371
G1 X116.458 Y114.673 E.01077
G1 X116.6 Y114.365 F12000
;WIPE_START
G1 F9600
G1 X116.35 Y114.319 E-.07692
G1 X116.35 Y110.118 E-.87308
;WIPE_END
G1 E-.05 F2100
G1 Z.8 F720
G1 X127.282 Y97.622 F12000
G1 Z.6 F720
G1 E1 F2100
;TYPE:Solid infill
;WIDTH:0.656432
G1 F2205
G1 X126.314 Y96.654 E.06843
G1 X125.446 Y96.654 E.04339
G1 X127.009 Y98.217 E.11048
G1 X127.009 Y99.084 E.04338
G1 X124.579 Y96.654 E.17183
G1 X123.711 Y96.654 E.04339
G1 X127.009 Y99.952 E.23319
G1 X127.009 Y100.82 E.04338
G1 X122.843 Y96.653 E.29455
G1 X121.975 Y96.653 E.04339
G1 X127.009 Y101.687 E.35591
G1 X127.009 Y102.555 E.04338
G1 X121.107 Y96.653 E.41727
G1 X120.239 Y96.653 E.04339
G1 X127.009 Y103.422 E.47863
G1 X127.009 Y104.29 E.04338
G1 X119.371 Y96.652 E.53999
G1 X118.504 Y96.652 E.04339
G1 X127.009 Y105.158 E.60135
G1 X127.009 Y106.025 E.04338
G1 X118.02 Y97.036 E.63555
G1 X118.02 Y97.904 E.04338
G1 X127.009 Y106.893 E.63555
G1 X127.009 Y107.761 E.04338
G1 X118.02 Y98.771 E.63555
G1 X118.02 Y99.639 E.04338
G1 X127.009 Y108.628 E.63555
G1 X127.009 Y109.496 E.04338
G1 X118.02 Y100.507 E.63555
G1 X118.02 Y101.374 E.04338
G1 X127.009 Y110.364 E.63555
G1 X127.009 Y111.231 E.04338
G1 X118.02 Y102.242 E.63555
G1 X118.02 Y103.11 E.04338
G1 X127.009 Y112.099 E.63555
G1 X127.009 Y112.966 E.04338
G1 X118.02 Y103.977 E.63555
G1 X118.02 Y104.845 E.04338
G1 X126.519 Y113.344 E.60094
G1 X125.652 Y113.345 E.04336
G1 X118.02 Y105.712 E.53962
G1 X118.02 Y106.58 E.04338
G1 X124.785 Y113.345 E.4783
G1 X123.917 Y113.345 E.04336
G1 X118.02 Y107.448 E.41698
G1 X118.02 Y108.315 E.04338
G1 X123.05 Y113.346 E.35566
G1 X122.183 Y113.346 E.04336
G1 X118.02 Y109.183 E.29434
G1 X118.02 Y110.051 E.04338
G1 X121.316 Y113.346 E.23302
G1 X120.448 Y113.347 E.04336
G1 X118.02 Y110.918 E.1717
G1 X118.02 Y111.786 E.04338
G1 X119.581 Y113.347 E.11038
G1 X118.714 Y113.347 E.04336
G1 X117.747 Y112.38 E.06838
; stop printing object y-idler-tensioner.stl id:0 copy 0
M106 S63.75
;LAYER_CHANGE
;Z:0.8
;HEIGHT:0.2
;BEFORE_LAYER_CHANGE
;0.8
G92 E0
;WIPE_START
G1 F9600
G1 X118.714 Y113.347 E-.28423
G1 X119.581 Y113.347 E-.18024
G1 X118.02 Y111.786 E-.45883
G1 X118.02 Y111.657 E-.02671
;WIPE_END
G1 E-.05 F2100
G1 Z.8 F720
;AFTER_LAYER_CHANGE
;0.8
; printing object y-idler-tensioner.stl id:0 copy 0
G1 Z1
G1 X117.564 Y113.803 F12000
G1 Z.8 F720
G1 E1 F2100
;TYPE:Perimeter
;WIDTH:0.649999
G1 F1852
G1 X117.564 Y96.197 E.87098
G1 X127.664 Y96.2 E.49963
G1 X127.664 Y113.8 E.87063
G1 X117.624 Y113.803 E.49666
G1 X116.977 Y114.368 F12000
G1 F1852
G1 X116.957 Y114.276 E.00465
G1 X116.969 Y95.643 E.92175
G1 X117.092 Y95.59 E.00663
G1 X127.749 Y95.593 E.5272
G1 X128.015 Y95.629 E.01329
G1 X128.271 Y95.751 E.01403
G1 X128.271 Y114.245 E.91491
G1 X128.185 Y114.317 E.00554
G1 X127.841 Y114.407 E.01761
G1 X117.102 Y114.41 E.53122
G1 X117.033 Y114.387 E.0036
G1 X116.427 Y114.632 F12000
;TYPE:External perimeter
G1 F1852
G1 X116.35 Y114.319 E.01591
G1 X116.35 Y95.681 E.92204
G1 X116.418 Y95.387 E.01491
G1 X116.578 Y95.158 E.01382
G1 X116.846 Y95.011 E.01512
G1 X117.048 Y94.982 E.0101
G1 X127.749 Y94.986 E.52935
G1 X128.249 Y95.052 E.02497
G1 X128.625 Y95.24 E.02079
G1 X128.807 Y95.436 E.01321
G1 X128.878 Y95.677 E.01245
G1 X128.878 Y114.245 E.91856
G1 X128.839 Y114.49 E.01227
