; generated by PrusaSlicer 2.5.0+MacOS-arm64 on 2022-11-15 at 11:06:57 UTC


;
;

;
;
; 

; external perimeters extrusion width = 0.65mm
; perimeters extrusion width = 0.65mm
; infill extrusion width = 0.65mm
; solid infill extrusion width = 0.65mm
; top infill extrusion width = 0.60mm
; support material extrusion width = 0.55mm
; first layer extrusion width = 0.65mm

M201 X2500 Y2500 Z200 E10000 ; sets maximum accelerations, mm/sec^2
M203 X12000 Y12000 Z720 E7200 ; sets maximum feedrates, mm / min
M204 P1500 T1500 ; sets acceleration (P, T), mm/sec^2
M566 X480.00 Y480.00 Z12.00 E150.00 ; sets the jerk limits, mm/min
M107
;TYPE:Custom
G0 X60 Y-3 Z80                         ; move extruder above bed
M568 P0 S160 A2                        ; pre-heat extruder to 160C
M140 S70    ; this will take the layer 1 temperature for bed 0
M190 S70    ; wait for bed temp
G32                                    ; execute bed.g (level gantry)
G29			                          ; perform mesh now.
G0 X0 Y-3 Z0.6                         ; go outside print area
M568 P0 S240 A2  ; set extruder temperature
M109 S240        ; wait for extruder temp
M98 P"0:/sys/primeLine.g"              ; execute primeline macro
G92 E0.0                               ; set extruder position
G21 ; set units to millimeters
G90 ; use absolute coordinates
M83 ; use relative distances for extrusion
;M572 D0 S0.08                          ; set pressure advanc
M107
;LAYER_CHANGE
;Z:0.2
;HEIGHT:0.2
;BEFORE_LAYER_CHANGE
;0.2
G92 E0
G1 E-1 F2100
G1 Z.2 F720
;AFTER_LAYER_CHANGE
;0.2
G1 Z.4
G1 X108.528 Y83.713 F12000
G1 Z.2 F720
G1 E1 F2100
M204 P1000
;TYPE:Skirt/Brim
;WIDTH:0.65
G1 F1800
G1 X109.157 Y82.911 E.05042
G1 X109.755 Y82.448 E.03743
G1 X110.689 Y82.041 E.05042
G1 X111.435 Y81.917 E.03742
G1 X138.565 Y81.917 E1.34206
G1 X139.311 Y82.041 E.03742
G1 X140.245 Y82.448 E.05042
G1 X140.843 Y82.911 E.03743
G1 X141.472 Y83.713 E.05042
G1 X145.382 Y92.456 E.47378
G1 X145.607 Y93.515 E.05355
G1 X145.607 Y130.5 E1.82962
G1 X144.843 Y132.343 E.09871
G1 X142.843 Y134.343 E.13992
G1 X141 Y135.107 E.09871
G1 X109 Y135.107 E1.58302
G1 X107.157 Y134.343 E.09871
G1 X105.157 Y132.343 E.13992
G1 X104.393 Y130.5 E.09871
G1 X104.393 Y93.515 E1.82962
G1 X104.618 Y92.456 E.05355
G1 X108.503 Y83.768 E.47082
M204 P1500
; printing object y-idler-mount.stl id:0 copy 0
;WIPE_START
G1 F9600
G1 X109.157 Y82.911 E-.2239
G1 X109.755 Y82.448 E-.15722
G1 X110.689 Y82.041 E-.2118
G1 X111.435 Y81.917 E-.15721
G1 X112.397 Y81.917 E-.19986
;WIPE_END
G1 E-.05 F2100
G1 Z.4 F720
G1 X117.9 Y92.043 F12000
G1 Z.2 F720
G1 E1 F2100
M204 P1000
;TYPE:Support material
G1 F1800
G1 X120.407 Y92.043 E.12402
G1 X120.407 Y94.55 E.12402
G1 X129.593 Y94.55 E.4544
G1 X129.593 Y92.043 E.12402
G1 X132.1 Y92.043 E.12402
G1 X132.1 Y84.522 E.37207
G1 X136.598 Y84.522 E.22251
G1 X136.555 Y84.565 E.003
G1 X136.555 Y126.545 E2.07672
G1 X113.445 Y126.545 E1.14324
G1 X113.445 Y84.565 E2.07672
G1 X113.402 Y84.522 E.003
G1 X117.9 Y84.522 E.22251
G1 X117.9 Y91.952 E.36757
M204 P1500
G1 X135.793 Y126.272 F12000
M204 P1000
G1 F1800
G1 X135.793 Y85.068 E2.0383
G1 X135.118 Y85.068 E.03337
G1 X135.118 Y125.999 E2.02479
G1 X134.443 Y125.999 E.03337
G1 X134.443 Y85.068 E2.02479
G1 X133.769 Y85.068 E.03337
G1 X133.769 Y125.999 E2.02479
G1 X133.094 Y125.999 E.03337
G1 X133.094 Y85.068 E2.02479
G1 X132.646 Y85.068 E.02217
G1 X132.646 Y92.59 E.37207
G1 X132.42 Y92.59 E.0112
G1 X132.42 Y125.999 E1.65272
G1 X131.745 Y125.999 E.03337
G1 X131.745 Y92.59 E1.65272
G1 X131.071 Y92.59 E.03337
G1 X131.071 Y125.999 E1.65272
G1 X130.396 Y125.999 E.03337
G1 X130.396 Y92.59 E1.65272
G1 X130.139 Y92.59 E.01272
G1 X130.139 Y95.097 E.12402
G1 X129.722 Y95.097 E.02065
G1 X129.722 Y125.999 E1.52869
G1 X129.047 Y125.999 E.03337
G1 X129.047 Y95.097 E1.52869
G1 X128.373 Y95.097 E.03337
G1 X128.373 Y125.999 E1.52869
G1 X127.698 Y125.999 E.03337
G1 X127.698 Y95.097 E1.52869
G1 X127.024 Y95.097 E.03337
G1 X127.024 Y125.999 E1.52869
G1 X126.349 Y125.999 E.03337
G1 X126.349 Y95.097 E1.52869
G1 X125.675 Y95.097 E.03337
G1 X125.675 Y125.999 E1.52869
G1 X125 Y125.999 E.03337
G1 X125 Y95.097 E1.52869
G1 X124.325 Y95.097 E.03337
G1 X124.325 Y125.999 E1.52869
G1 X123.651 Y125.999 E.03337
G1 X123.651 Y95.097 E1.52869
G1 X122.976 Y95.097 E.03337
G1 X122.976 Y125.999 E1.52869
G1 X122.302 Y125.999 E.03337
G1 X122.302 Y95.097 E1.52869
G1 X121.627 Y95.097 E.03337
G1 X121.627 Y125.999 E1.52869
G1 X120.953 Y125.999 E.03337
G1 X120.953 Y95.097 E1.52869
G1 X120.278 Y95.097 E.03337
G1 X120.278 Y125.999 E1.52869
G1 X119.604 Y125.999 E.03337
G1 X119.604 Y92.59 E1.65272
G1 X118.929 Y92.59 E.03337
G1 X118.929 Y125.999 E1.65272
G1 X118.255 Y125.999 E.03337
G1 X118.255 Y92.59 E1.65272
G1 X117.58 Y92.59 E.03337
G1 X117.58 Y125.999 E1.65272
G1 X116.906 Y125.999 E.03337
G1 X116.906 Y85.068 E2.02479
G1 X116.231 Y85.068 E.03337
G1 X116.231 Y125.999 E2.02479
G1 X115.557 Y125.999 E.03337
G1 X115.557 Y85.068 E2.02479
G1 X114.882 Y85.068 E.03337
G1 X114.882 Y125.999 E2.02479
G1 X114.207 Y125.999 E.03337
G1 X114.207 Y84.795 E2.0383
M204 P1500
;WIPE_START
G1 F9600
G1 X114.207 Y89.367 E-.95
;WIPE_END
G1 E-.05 F2100
G1 Z.4 F720
G1 X111.444 Y128.793 F12000
G1 Z.2 F720
G1 E1 F2100
M204 P1000
;TYPE:Perimeter
;WIDTH:0.649999
G1 F1800
G1 X111.502 Y128.85 E.00403
G1 X111.908 Y129.054 E.02248
G1 X112.379 Y129.129 E.02359
G1 X137.621 Y129.129 E1.24875
G1 X138.092 Y129.054 E.02359
G1 X138.498 Y128.85 E.02248
G1 X138.801 Y128.566 E.02054
G1 X139.061 Y128.091 E.0268
G1 X139.139 Y127.611 E.02403
G1 X139.139 Y90.095 E1.8559
G1 X140.861 Y93.969 E.20971
G1 X140.861 Y129.614 E1.76333
G1 X140.114 Y130.361 E.05225
G1 X109.886 Y130.361 E1.49535
G1 X109.139 Y129.614 E.05225
G1 X109.139 Y93.969 E1.76333
G1 X110.861 Y90.095 E.20971
G1 X110.861 Y127.611 E1.8559
G1 X110.939 Y128.091 E.02403
G1 X111.15 Y128.502 E.02286
G1 X111.401 Y128.751 E.0175
M204 P1500
G1 X111.823 Y128.326 F12000
M204 P1000
G1 F1800
G1 X112.096 Y128.477 E.01541
G1 X112.379 Y128.522 E.01415
G1 X137.621 Y128.522 E1.24875
G1 X137.779 Y128.508 E.00781
G1 X138.148 Y128.355 E.01976
G1 X138.329 Y128.184 E.01232
G1 X138.485 Y127.899 E.01608
G1 X138.532 Y127.611 E.01442
G1 X138.532 Y87.234 E1.99742
G1 X141.468 Y93.84 E.3576
G1 X141.468 Y129.865 E1.78214
G1 X140.365 Y130.968 E.07713
G1 X109.635 Y130.968 E1.52023
G1 X108.532 Y129.865 E.07713
G1 X108.532 Y93.84 E1.78214
G1 X111.468 Y87.234 E.3576
G1 X111.468 Y127.611 E1.99742
G1 X111.482 Y127.769 E.00781
G1 X111.641 Y128.146 E.02025
G1 X111.781 Y128.284 E.00972
M204 P1500
G1 X112.203 Y127.859 F12000
M204 P1000
;TYPE:External perimeter
G1 F1800
G1 X112.379 Y127.915 E.0091
G1 X137.621 Y127.915 E1.24875
G1 X137.674 Y127.91 E.0026
G1 X137.857 Y127.802 E.01053
G1 X137.925 Y127.611 E.01002
G1 X137.925 Y85.44 E2.08619
G1 X138.303 Y85.44 E.01868
G1 X138.443 Y85.538 E.00846
G1 X142.075 Y93.711 E.44244
G1 X142.075 Y130.117 E1.80096
G1 X140.617 Y131.575 E.10201
G1 X109.383 Y131.575 E1.54511
G1 X107.925 Y130.117 E.10201
G1 X107.925 Y93.711 E1.80096
G1 X111.554 Y85.545 E.44207
G1 X111.649 Y85.46 E.00629
G1 X112.075 Y85.44 E.02112
G1 X112.075 Y127.611 E2.08619
G1 X112.091 Y127.707 E.00481
G1 X112.167 Y127.811 E.00638
M204 P1500
G1 X112.195 Y128.043 F12000
;WIPE_START
G1 F9600
G1 X112.379 Y127.915 E-.04891
G1 X116.715 Y127.915 E-.90109
;WIPE_END
G1 E-.05 F2100
G1 Z.4 F720
G1 X139.321 Y92.795 F12000
G1 Z.2 F720
G1 E1 F2100
M204 P1000
;TYPE:Solid infill
;WIDTH:0.652278
G1 F1800
G1 X140.256 Y93.73 E.06566
G1 X140.406 Y94.065 E.01824
G1 X140.406 Y94.741 E.03353
G1 X139.594 Y93.93 E.05696
G1 X139.594 Y94.791 E.04279
G1 X140.406 Y95.603 E.05696
G1 X140.406 Y96.464 E.04279
G1 X139.594 Y95.653 E.05696
G1 X139.594 Y96.515 E.04279
G1 X140.406 Y97.326 E.05696
G1 X140.406 Y98.188 E.04279
G1 X139.594 Y97.377 E.05696
G1 X139.594 Y98.238 E.04279
G1 X140.406 Y99.05 E.05696
G1 X140.406 Y99.911 E.04279
G1 X139.594 Y99.1 E.05696
G1 X139.594 Y99.962 E.04279
G1 X140.406 Y100.773 E.05696
G1 X140.406 Y101.635 E.04279
G1 X139.594 Y100.824 E.05696
G1 X139.594 Y101.686 E.04279
G1 X140.406 Y102.497 E.05696
G1 X140.406 Y103.358 E.04279
G1 X139.594 Y102.547 E.05696
G1 X139.594 Y103.409 E.04279
G1 X140.406 Y104.22 E.05696
G1 X140.406 Y105.082 E.04279
G1 X139.594 Y104.271 E.05696
G1 X139.594 Y105.133 E.04279
G1 X140.406 Y105.944 E.05696
G1 X140.406 Y106.805 E.04279
G1 X139.594 Y105.994 E.05696
G1 X139.594 Y106.856 E.04279
G1 X140.406 Y107.667 E.05696
G1 X140.406 Y108.529 E.04279
G1 X139.594 Y107.718 E.05696
G1 X139.594 Y108.58 E.04279
G1 X140.406 Y109.391 E.05696
G1 X140.406 Y110.252 E.04279
G1 X139.594 Y109.441 E.05696
G1 X139.594 Y110.303 E.04279
G1 X140.406 Y111.114 E.05696
G1 X140.406 Y111.976 E.04279
G1 X139.594 Y111.165 E.05696
G1 X139.594 Y112.027 E.04279
G1 X140.406 Y112.838 E.05696
G1 X140.406 Y113.7 E.04279
G1 X139.594 Y112.888 E.05696
G1 X139.594 Y113.75 E.04279
G1 X140.406 Y114.561 E.05696
G1 X140.406 Y115.423 E.04279
G1 X139.594 Y114.612 E.05696
G1 X139.594 Y115.474 E.04279
G1 X140.406 Y116.285 E.05696
G1 X140.406 Y117.147 E.04279
G1 X139.594 Y116.335 E.05696
G1 X139.594 Y117.197 E.04279
G1 X140.406 Y118.008 E.05696
G1 X140.406 Y118.87 E.04279
G1 X139.594 Y118.059 E.05696
G1 X139.594 Y118.921 E.04279
G1 X140.406 Y119.732 E.05696
G1 X140.406 Y120.594 E.04279
G1 X139.594 Y119.783 E.05696
G1 X139.594 Y120.644 E.04279
G1 X140.406 Y121.455 E.05696
G1 X140.406 Y122.317 E.04279
G1 X139.594 Y121.506 E.05696
G1 X139.594 Y122.368 E.04279
G1 X140.406 Y123.179 E.05696
G1 X140.406 Y124.041 E.04279
G1 X139.594 Y123.23 E.05696
G1 X139.594 Y124.091 E.04279
G1 X140.406 Y124.902 E.05696
G1 X140.406 Y125.764 E.04279
G1 X139.594 Y124.953 E.05696
G1 X139.594 Y125.815 E.04279
G1 X140.406 Y126.626 E.05696
G1 X140.406 Y127.488 E.04279
G1 X139.594 Y126.677 E.05696
G1 X139.594 Y127.538 E.04279
G1 X140.406 Y128.349 E.05696
G1 X140.406 Y129.211 E.04279
G1 X139.473 Y128.279 E.0655
G1 X139.225 Y128.761 E.02695
G1 X139.168 Y128.836 E.00464
G1 X140.082 Y129.749 E.06415
G1 X139.925 Y129.905 E.01098
G1 X139.376 Y129.905 E.02727
G1 X138.717 Y129.246 E.0463
G1 X138.24 Y129.486 E.02652
G1 X138.124 Y129.515 E.00593
G1 X138.514 Y129.905 E.02743
G1 X137.653 Y129.905 E.04279
G1 X137.332 Y129.584 E.02255
G1 X136.47 Y129.584 E.04279
G1 X136.791 Y129.905 E.02255
G1 X135.929 Y129.905 E.04279
G1 X135.608 Y129.584 E.02255
G1 X134.746 Y129.584 E.04279
G1 X135.067 Y129.905 E.02255
G1 X134.206 Y129.905 E.04279
G1 X133.885 Y129.584 E.02255
G1 X133.023 Y129.584 E.04279
G1 X133.344 Y129.905 E.02255
G1 X132.482 Y129.905 E.04279
G1 X132.161 Y129.584 E.02255
G1 X131.299 Y129.584 E.04279
G1 X131.62 Y129.905 E.02255
G1 X130.759 Y129.905 E.04279
G1 X130.437 Y129.584 E.02255
G1 X129.576 Y129.584 E.04279
G1 X129.897 Y129.905 E.02255
G1 X129.035 Y129.905 E.04279
G1 X128.714 Y129.584 E.02255
G1 X127.852 Y129.584 E.04279
G1 X128.173 Y129.905 E.02255
G1 X127.312 Y129.905 E.04279
G1 X126.99 Y129.584 E.02255
G1 X126.129 Y129.584 E.04279
G1 X126.45 Y129.905 E.02255
G1 X125.588 Y129.905 E.04279
G1 X125.267 Y129.584 E.02255
G1 X124.405 Y129.584 E.04279
G1 X124.726 Y129.905 E.02255
G1 X123.864 Y129.905 E.04279
G1 X123.543 Y129.584 E.02255
G1 X122.682 Y129.584 E.04279
G1 X123.003 Y129.905 E.02255
G1 X122.141 Y129.905 E.04279
G1 X121.82 Y129.584 E.02255
G1 X120.958 Y129.584 E.04279
G1 X121.279 Y129.905 E.02255
G1 X120.417 Y129.905 E.04279
G1 X120.096 Y129.584 E.02255
G1 X119.235 Y129.584 E.04279
G1 X119.556 Y129.905 E.02255
G1 X118.694 Y129.905 E.04279
G1 X118.373 Y129.584 E.02255
G1 X117.511 Y129.584 E.04279
G1 X117.832 Y129.905 E.02255
G1 X116.97 Y129.905 E.04279
G1 X116.649 Y129.584 E.02255
G1 X115.788 Y129.584 E.04279
G1 X116.109 Y129.905 E.02255
G1 X115.247 Y129.905 E.04279
G1 X114.926 Y129.584 E.02255
G1 X114.064 Y129.584 E.04279
G1 X114.385 Y129.905 E.02255
G1 X113.523 Y129.905 E.04279
G1 X112.929 Y129.311 E.04173
M204 P1500
;WIPE_START
G1 F9600
G1 X113.523 Y129.905 E-.17465
G1 X114.385 Y129.905 E-.17908
G1 X114.064 Y129.584 E-.09436
G1 X114.926 Y129.584 E-.17908
G1 X115.247 Y129.905 E-.09436
G1 X116.109 Y129.905 E-.17908
G1 X115.941 Y129.737 E-.04936
;WIPE_END
G1 E-.05 F2100
G1 Z.4 F720
G1 X110.679 Y93.452 F12000
G1 Z.2 F720
G1 E1 F2100
M204 P1000
G1 F1800
G1 X110.117 Y92.89 E.03946
G1 X109.852 Y93.487 E.03242
G1 X110.406 Y94.041 E.0389
G1 X110.406 Y94.902 E.04279
G1 X109.594 Y94.091 E.05696
G1 X109.594 Y94.953 E.04279
G1 X110.406 Y95.764 E.05696
G1 X110.406 Y96.626 E.04279
G1 X109.594 Y95.815 E.05696
G1 X109.594 Y96.677 E.04279
G1 X110.406 Y97.488 E.05696
G1 X110.406 Y98.349 E.04279
G1 X109.594 Y97.538 E.05696
G1 X109.594 Y98.4 E.04279
G1 X110.406 Y99.211 E.05696
G1 X110.406 Y100.073 E.04279
G1 X109.594 Y99.262 E.05696
G1 X109.594 Y100.124 E.04279
G1 X110.406 Y100.935 E.05696
G1 X110.406 Y101.797 E.04279
G1 X109.594 Y100.985 E.05696
G1 X109.594 Y101.847 E.04279
G1 X110.406 Y102.658 E.05696
G1 X110.406 Y103.52 E.04279
G1 X109.594 Y102.709 E.05696
G1 X109.594 Y103.571 E.04279
G1 X110.406 Y104.382 E.05696
G1 X110.406 Y105.244 E.04279
G1 X109.594 Y104.433 E.05696
G1 X109.594 Y105.294 E.04279
G1 X110.406 Y106.105 E.05696
G1 X110.406 Y106.967 E.04279
G1 X109.594 Y106.156 E.05696
G1 X109.594 Y107.018 E.04279
G1 X110.406 Y107.829 E.05696
G1 X110.406 Y108.691 E.04279
G1 X109.594 Y107.88 E.05696
G1 X109.594 Y108.741 E.04279
G1 X110.406 Y109.552 E.05696
G1 X110.406 Y110.414 E.04279
G1 X109.594 Y109.603 E.05696
G1 X109.594 Y110.465 E.04279
G1 X110.406 Y111.276 E.05696
G1 X110.406 Y112.138 E.04279
G1 X109.594 Y111.327 E.05696
G1 X109.594 Y112.188 E.04279
G1 X110.406 Y112.999 E.05696
G1 X110.406 Y113.861 E.04279
G1 X109.594 Y113.05 E.05696
G1 X109.594 Y113.912 E.04279
G1 X110.406 Y114.723 E.05696
G1 X110.406 Y115.585 E.04279
G1 X109.594 Y114.774 E.05696
G1 X109.594 Y115.635 E.04279
G1 X110.406 Y116.447 E.05696
G1 X110.406 Y117.308 E.04279
G1 X109.594 Y116.497 E.05696
G1 X109.594 Y117.359 E.04279
G1 X110.406 Y118.17 E.05696
G1 X110.406 Y119.032 E.04279
G1 X109.594 Y118.221 E.05696
G1 X109.594 Y119.082 E.04279
G1 X110.406 Y119.894 E.05696
G1 X110.406 Y120.755 E.04279
G1 X109.594 Y119.944 E.05696
G1 X109.594 Y120.806 E.04279
G1 X110.406 Y121.617 E.05696
G1 X110.406 Y122.479 E.04279
G1 X109.594 Y121.668 E.05696
G1 X109.594 Y122.53 E.04279
G1 X110.406 Y123.341 E.05696
G1 X110.406 Y124.202 E.04279
G1 X109.594 Y123.391 E.05696
G1 X109.594 Y124.253 E.04279
G1 X110.406 Y125.064 E.05696
G1 X110.406 Y125.926 E.04279
G1 X109.594 Y125.115 E.05696
G1 X109.594 Y125.977 E.04279
G1 X110.679 Y127.061 E.07614
M204 P1500
;WIPE_START
G1 F9600
G1 X109.594 Y125.977 E-.31866
G1 X109.594 Y125.115 E-.17909
G1 X110.406 Y125.926 E-.23837
G1 X110.406 Y125.064 E-.17908
G1 X110.287 Y124.946 E-.0348
;WIPE_END
G1 E-.05 F2100
G1 Z.4 F720
G1 X109.321 Y126.565 F12000
G1 Z.2 F720
G1 E1 F2100
M204 P1000
G1 F1800
G1 X110.409 Y127.652 E.07635
G1 X110.435 Y127.951 E.0149
G1 X110.508 Y128.241 E.01482
G1 X110.775 Y128.761 E.02907
G1 X110.85 Y128.859 E.00612
G1 X111.239 Y129.224 E.02645
G1 X111.766 Y129.489 E.02933
G1 X112.336 Y129.579 E.02862
G1 X112.662 Y129.905 E.02289
G1 X111.8 Y129.905 E.04279
G1 X109.594 Y127.7 E.15487
G1 X109.594 Y128.562 E.04279
G1 X110.938 Y129.905 E.09435
G1 X110.076 Y129.905 E.04279
G1 X109.321 Y129.15 E.05302
M204 P1500
; stop printing object y-idler-mount.stl id:0 copy 0
;LAYER_CHANGE
;Z:0.4
;HEIGHT:0.2
;BEFORE_LAYER_CHANGE
;0.4
G92 E0
;WIPE_START
G1 F9600
G1 X110.076 Y129.905 E-.22189
G1 X110.938 Y129.905 E-.17908
G1 X109.594 Y128.562 E-.39487
G1 X109.594 Y127.82 E-.15415
;WIPE_END
G1 E-.05 F2100
G1 Z.4 F720
;AFTER_LAYER_CHANGE
;0.4
G1 Z.6
G1 X104.393 Y127.82 F12000
G1 Z.4 F720
G1 E1 F2100
;TYPE:Skirt/Brim
;WIDTH:0.65
G1 F3953.353
G1 X104.393 Y93.515 E1.69705
G1 X104.618 Y92.456 E.05355
G1 X108.528 Y83.713 E.47378
G1 X109.157 Y82.911 E.05042
G1 X109.755 Y82.448 E.03743
G1 X110.689 Y82.041 E.05042
G1 X111.435 Y81.917 E.03742
G1 X138.565 Y81.917 E1.34206
G1 X139.311 Y82.041 E.03742
G1 X140.245 Y82.448 E.05042
G1 X140.843 Y82.911 E.03743
G1 X141.472 Y83.713 E.05042
G1 X145.382 Y92.456 E.47378
G1 X145.607 Y93.515 E.05355
G1 X145.607 Y130.5 E1.82962
G1 X144.843 Y132.343 E.09871
G1 X142.843 Y134.343 E.13992
