; generated by PrusaSlicer 2.5.0+MacOS-arm64 on 2022-11-16 at 02:11:05 UTC


;
;

;
;
; 

; external perimeters extrusion width = 0.65mm
; perimeters extrusion width = 0.65mm
; infill extrusion width = 0.65mm
; solid infill extrusion width = 0.65mm
; top infill extrusion width = 0.60mm
; support material extrusion width = 0.55mm
; first layer extrusion width = 0.65mm

M201 X2500 Y2500 Z200 E10000 ; sets maximum accelerations, mm/sec^2
M203 X12000 Y12000 Z720 E7200 ; sets maximum feedrates, mm / min
M204 P1500 T1500 ; sets acceleration (P, T), mm/sec^2
M566 X480.00 Y480.00 Z12.00 E150.00 ; sets the jerk limits, mm/min
M107
;TYPE:Custom
G0 X60 Y-3 Z80                         ; move extruder above bed
M568 P0 S160 A2                        ; pre-heat extruder to 160C
M140 S70    ; this will take the layer 1 temperature for bed 0
M190 S70    ; wait for bed temp
G32                                    ; execute bed.g (level gantry)
G29			                          ; perform mesh now.
G0 X0 Y-3 Z0.6                         ; go outside print area
M568 P0 S240 A2  ; set extruder temperature
M109 S240        ; wait for extruder temp
M98 P"0:/sys/primeLine.g"              ; execute primeline macro
G92 E0.0                               ; set extruder position
G21 ; set units to millimeters
G90 ; use absolute coordinates
M83 ; use relative distances for extrusion
;M572 D0 S0.08                          ; set pressure advanc
M107
;LAYER_CHANGE
;Z:0.2
;HEIGHT:0.2
;BEFORE_LAYER_CHANGE
;0.2
G92 E0
G1 E-1 F2100
G1 Z.2 F720
;AFTER_LAYER_CHANGE
;0.2
G1 Z.4
G1 X112.96 Y99.722 F12000
G1 Z.2 F720
G1 E1 F2100
M204 P1000
;TYPE:Skirt/Brim
;WIDTH:0.65
G1 F1800
G1 X113.569 Y99.12 E.04236
G1 X114.558 Y98.578 E.0558
G1 X115.657 Y98.389 E.05517
G1 X134.563 Y98.399 E.93525
G1 X135.283 Y98.527 E.03614
G1 X135.807 Y98.73 E.02781
G1 X136.385 Y99.084 E.03354
G1 X136.78 Y99.431 E.026
G1 X137.193 Y99.928 E.03201
G1 X137.578 Y100.614 E.03889
G1 X137.919 Y101.883 E.06498
G1 X137.933 Y113.303 E.56495
G1 X137.745 Y114.167 E.04376
G1 X137.54 Y114.64 E.02546
G1 X137.185 Y115.192 E.03248
G1 X136.56 Y115.818 E.04377
G1 X135.645 Y116.336 E.05199
G1 X134.529 Y116.575 E.05651
G1 X115.657 Y116.582 E.93354
G1 X114.821 Y116.482 E.04165
G1 X113.993 Y116.173 E.04376
G1 X113.44 Y115.818 E.03249
G1 X112.815 Y115.192 E.04377
G1 X112.305 Y114.301 E.05076
G1 X112.057 Y113.161 E.05774
G1 X112.059 Y102.151 E.54467
G1 X112.203 Y101.244 E.04542
G1 X112.514 Y100.421 E.04352
G1 X112.928 Y99.773 E.03803
M204 P1500
; printing object y-idler-tensioner-2gt-20t-b3.stl id:0 copy 0
;WIPE_START
G1 F9600
G1 X113.569 Y99.12 E-.19015
G1 X114.558 Y98.578 E-.23442
G1 X115.657 Y98.389 E-.23177
G1 X117.07 Y98.39 E-.29366
;WIPE_END
G1 E-.05 F2100
G1 Z.4 F720
G1 X133.599 Y103.136 F12000
G1 Z.2 F720
G1 E1 F2100
M204 P1000
;TYPE:Perimeter
;WIDTH:0.649999
G1 F1800
G1 X133.603 Y112.236 E.45014
G1 X116.397 Y112.236 E.8512
G1 X116.397 Y103.136 E.45016
G1 X133.539 Y103.136 E.84803
M204 P1500
G1 X134.14 Y102.529 F12000
M204 P1000
G1 F1800
G1 X134.206 Y102.768 E.01225
G1 X134.21 Y112.843 E.4984
G1 X115.789 Y112.843 E.91127
G1 X115.789 Y102.864 E.49364
G1 X115.85 Y102.529 E.01685
G1 X134.08 Y102.529 E.90184
M204 P1500
G1 X134.552 Y102.056 F12000
M204 P1000
;TYPE:External perimeter
G1 F1800
G1 X134.72 Y102.336 E.01614
G1 X134.813 Y102.714 E.01927
G1 X134.818 Y112.873 E.50258
G1 X134.765 Y113.18 E.0154
G1 X134.597 Y113.371 E.01257
G1 X134.313 Y113.45 E.01461
G1 X115.759 Y113.45 E.91785
G1 X115.452 Y113.397 E.01539
G1 X115.261 Y113.229 E.01257
G1 X115.182 Y112.945 E.01461
G1 X115.182 Y102.833 E.50024
G1 X115.216 Y102.512 E.01595
G1 X115.341 Y102.192 E.01699
G1 X115.532 Y101.971 E.01449
G1 X115.707 Y101.922 E.00899
G1 X134.217 Y101.922 E.91563
G1 X134.46 Y101.968 E.01226
G1 X134.509 Y102.015 E.00332
M204 P1500
G1 X134.459 Y102.369 F12000
;WIPE_START
G1 F9600
G1 X134.72 Y102.336 E-.0799
G1 X134.813 Y102.714 E-.08096
G1 X134.815 Y106.511 E-.78914
;WIPE_END
G1 E-.05 F2100
G1 Z.4 F720
G1 X133.418 Y104.587 F12000
G1 Z.2 F720
G1 E1 F2100
M204 P1000
;TYPE:Solid infill
;WIDTH:0.669442
G1 F1800
G1 X132.422 Y103.591 E.0719
G1 X131.536 Y103.591 E.04524
G1 X133.145 Y105.2 E.11617
G1 X133.145 Y106.087 E.04526
G1 X130.65 Y103.591 E.18017
G1 X129.764 Y103.591 E.04524
G1 X133.146 Y106.973 E.24417
G1 X133.146 Y107.86 E.04526
G1 X128.878 Y103.591 E.30817
G1 X127.992 Y103.591 E.04524
G1 X133.146 Y108.746 E.37218
G1 X133.147 Y109.632 E.04526
G1 X127.106 Y103.591 E.43618
G1 X126.219 Y103.591 E.04524
G1 X133.147 Y110.519 E.50018
G1 X133.147 Y111.405 E.04526
G1 X125.333 Y103.591 E.56418
G1 X124.447 Y103.591 E.04524
G1 X132.636 Y111.78 E.59126
G1 X131.75 Y111.78 E.04524
G1 X123.561 Y103.591 E.59126
G1 X122.675 Y103.591 E.04524
G1 X130.864 Y111.78 E.59126
G1 X129.978 Y111.78 E.04524
G1 X121.789 Y103.591 E.59126
G1 X120.903 Y103.591 E.04524
G1 X129.092 Y111.78 E.59126
G1 X128.206 Y111.78 E.04524
G1 X120.017 Y103.591 E.59126
G1 X119.131 Y103.591 E.04524
G1 X127.32 Y111.78 E.59126
G1 X126.434 Y111.78 E.04524
G1 X118.245 Y103.591 E.59127
G1 X117.359 Y103.591 E.04524
G1 X125.548 Y111.78 E.59127
G1 X124.662 Y111.78 E.04524
G1 X116.852 Y103.97 E.5639
G1 X116.852 Y104.856 E.04524
G1 X123.776 Y111.78 E.49993
G1 X122.89 Y111.78 E.04524
G1 X116.852 Y105.742 E.43596
G1 X116.852 Y106.628 E.04524
G1 X122.004 Y111.78 E.37199
G1 X121.118 Y111.78 E.04524
G1 X116.852 Y107.514 E.30801
G1 X116.852 Y108.4 E.04524
G1 X120.232 Y111.78 E.24404
G1 X119.346 Y111.78 E.04524
G1 X116.852 Y109.286 E.18007
G1 X116.852 Y110.172 E.04524
G1 X118.46 Y111.78 E.1161
G1 X117.574 Y111.78 E.04524
G1 X116.579 Y110.785 E.07185
M204 P1500
; stop printing object y-idler-tensioner-2gt-20t-b3.stl id:0 copy 0
;LAYER_CHANGE
;Z:0.4
;HEIGHT:0.2
;BEFORE_LAYER_CHANGE
;0.4
G92 E0
;WIPE_START
G1 F9600
G1 X117.574 Y111.78 E-.29246
G1 X118.46 Y111.78 E-.18413
G1 X116.852 Y110.172 E-.47257
G1 X116.852 Y110.168 E-.00085
;WIPE_END
G1 E-.05 F2100
G1 Z.4 F720
;AFTER_LAYER_CHANGE
;0.4
G1 Z.6
G1 X112.057 Y110.167 F12000
G1 Z.4 F720
G1 E1 F2100
;TYPE:Skirt/Brim
;WIDTH:0.65
G1 F2181
G1 X112.059 Y102.151 E.39659
G1 X112.203 Y101.244 E.04542
G1 X112.514 Y100.421 E.04352
G1 X112.96 Y99.722 E.041
G1 X113.569 Y99.12 E.04236
G1 X114.558 Y98.578 E.0558
G1 X115.657 Y98.389 E.05517
G1 X134.563 Y98.399 E.93525
G1 X135.283 Y98.527 E.03614
G1 X135.807 Y98.73 E.02781
G1 X136.385 Y99.084 E.03354
G1 X136.78 Y99.431 E.026
G1 X137.193 Y99.928 E.03201
G1 X137.578 Y100.614 E.03889
G1 X137.919 Y101.883 E.06498
G1 X137.933 Y113.303 E.56495
G1 X137.745 Y114.167 E.04376
G1 X137.54 Y114.64 E.02546
G1 X137.185 Y115.192 E.03248
G1 X136.56 Y115.818 E.04377
G1 X135.645 Y116.336 E.05199
G1 X134.529 Y116.575 E.05651
G1 X115.657 Y116.582 E.93354
G1 X114.821 Y116.482 E.04165
G1 X113.993 Y116.173 E.04376
G1 X113.44 Y115.818 E.03249
G1 X112.815 Y115.192 E.04377
G1 X112.305 Y114.301 E.05076
G1 X112.057 Y113.161 E.05774
G1 X112.057 Y110.227 E.14511
; printing object y-idler-tensioner-2gt-20t-b3.stl id:0 copy 0
;WIPE_START
G1 F9600
G1 X112.058 Y105.656 E-.95
;WIPE_END
G1 E-.05 F2100
G1 Z.6 F720
G1 X133.799 Y102.739 F12000
G1 Z.4 F720
G1 E1 F2100
;TYPE:Perimeter
;WIDTH:0.649999
G1 F2181
G1 X133.803 Y112.436 E.47968
G1 X116.197 Y112.436 E.87099
G1 X116.197 Y102.736 E.47984
G1 X133.739 Y102.739 E.86782
G1 X134.287 Y102.168 F12000
G1 F2181
G1 X134.406 Y102.578 E.02113
G1 X134.41 Y112.856 E.50843
G1 X134.382 Y113.005 E.0075
G1 X134.276 Y113.043 E.00558
G1 X115.783 Y113.043 E.91485
G1 X115.623 Y113.011 E.00802
G1 X115.589 Y112.908 E.00538
G1 X115.589 Y102.659 E.507
G1 X115.617 Y102.4 E.0129
G1 X115.744 Y102.129 E.01482
G1 X134.233 Y102.142 E.91464
G1 X134.79 Y101.82 F12000
;TYPE:External perimeter
G1 F2181
G1 X134.921 Y102.069 E.01392
G1 X135.013 Y102.516 E.02257
G1 X135.018 Y112.856 E.5115
G1 X134.969 Y113.165 E.01549
G1 X134.85 Y113.415 E.01366
G1 X134.624 Y113.577 E.01375
G1 X134.319 Y113.65 E.01552
G1 X115.783 Y113.65 E.917
G1 X115.478 Y113.601 E.01526
G1 X115.218 Y113.483 E.01413
G1 X115.056 Y113.258 E.01373
G1 X114.982 Y112.951 E.01557
G1 X114.982 Y102.628 E.51071
G1 X115.052 Y102.173 E.02276
G1 X115.217 Y101.817 E.01937
G1 X115.441 Y101.588 E.01587
G1 X115.679 Y101.522 E.01222
G1 X134.211 Y101.525 E.91678
G1 X134.565 Y101.597 E.01789
G1 X134.753 Y101.774 E.01275
G1 X134.691 Y102.084 F12000
;WIPE_START
G1 F9600
G1 X134.921 Y102.069 E-.07061
G1 X135.013 Y102.516 E-.09483
G1 X135.015 Y106.292 E-.78456
;WIPE_END
G1 E-.05 F2100
G1 Z.6 F720
G1 X132.39 Y112.253 F12000
G1 Z.4 F720
G1 E1 F2100
;TYPE:Solid infill
;WIDTH:0.651927
G1 F2181
G1 X133.347 Y111.296 E.06721
G1 X133.347 Y110.435 E.04272
G1 X131.802 Y111.98 E.10846
G1 X130.94 Y111.98 E.04274
G1 X133.347 Y109.574 E.16888
G1 X133.346 Y108.713 E.04272
G1 X130.079 Y111.98 E.2293
G1 X129.218 Y111.98 E.04274
G1 X133.346 Y107.852 E.28972
G1 X133.346 Y106.991 E.04272
G1 X128.357 Y111.98 E.35014
G1 X127.495 Y111.98 E.04274
G1 X133.345 Y106.13 E.41056
G1 X133.345 Y105.269 E.04272
G1 X126.634 Y111.98 E.47098
G1 X125.773 Y111.98 E.04274
G1 X133.345 Y104.409 E.5314
G1 X133.344 Y103.548 E.04272
G1 X124.912 Y111.98 E.59182
G1 X124.05 Y111.98 E.04274
G1 X132.836 Y103.194 E.61663
G1 X131.975 Y103.194 E.04273
G1 X123.189 Y111.98 E.61664
G1 X122.328 Y111.98 E.04274
G1 X131.114 Y103.194 E.61665
G1 X130.253 Y103.194 E.04273
G1 X121.466 Y111.98 E.61666
G1 X120.605 Y111.98 E.04274
G1 X129.392 Y103.194 E.61667
G1 X128.531 Y103.193 E.04273
G1 X119.744 Y111.98 E.61668
G1 X118.883 Y111.98 E.04274
G1 X127.67 Y103.193 E.6167
G1 X126.809 Y103.193 E.04273
G1 X118.021 Y111.98 E.61671
G1 X117.16 Y111.98 E.04274
G1 X125.948 Y103.193 E.61672
G1 X125.086 Y103.193 E.04273
G1 X116.652 Y111.627 E.59196
G1 X116.652 Y110.766 E.04274
G1 X124.225 Y103.193 E.53152
G1 X123.364 Y103.192 E.04273
G1 X116.652 Y109.905 E.47109
G1 X116.652 Y109.044 E.04274
G1 X122.503 Y103.192 E.41065
G1 X121.642 Y103.192 E.04273
G1 X116.652 Y108.182 E.35022
G1 X116.652 Y107.321 E.04274
G1 X120.781 Y103.192 E.28978
G1 X119.92 Y103.192 E.04273
G1 X116.652 Y106.46 E.22935
G1 X116.652 Y105.598 E.04274
G1 X119.059 Y103.192 E.16891
G1 X118.198 Y103.191 E.04273
G1 X116.652 Y104.737 E.10848
G1 X116.652 Y103.876 E.04274
G1 X117.61 Y102.918 E.06721
; stop printing object y-idler-tensioner-2gt-20t-b3.stl id:0 copy 0
;LAYER_CHANGE
;Z:0.6
;HEIGHT:0.2
;BEFORE_LAYER_CHANGE
;0.6
G92 E0
;WIPE_START
G1 F9600
G1 X116.652 Y103.876 E-.28146
G1 X116.652 Y104.737 E-.17898
G1 X118.198 Y103.191 E-.45426
G1 X118.367 Y103.192 E-.03529
;WIPE_END
G1 E-.05 F2100
G1 Z.6 F720
;AFTER_LAYER_CHANGE
;0.6
G1 Z.8
G1 X118.37 Y98.391 F12000
G1 Z.6 F720
G1 E1 F2100
;TYPE:Skirt/Brim
;WIDTH:0.65
G1 F2188
G1 X134.563 Y98.399 E.80108
G1 X135.283 Y98.527 E.03614
G1 X135.807 Y98.73 E.02781
G1 X136.385 Y99.084 E.03354
G1 X136.78 Y99.431 E.026
G1 X137.193 Y99.928 E.03201
G1 X137.578 Y100.614 E.03889
G1 X137.919 Y101.883 E.06498
G1 X137.933 Y113.303 E.56495
G1 X137.745 Y114.167 E.04376
G1 X137.54 Y114.64 E.02546
G1 X137.185 Y115.192 E.03248
G1 X136.56 Y115.818 E.04377
G1 X135.645 Y116.336 E.05199
G1 X134.529 Y116.575 E.05651
G1 X115.657 Y116.582 E.93354
G1 X114.821 Y116.482 E.04165
G1 X113.993 Y116.173 E.04376
G1 X113.44 Y115.818 E.03249
G1 X112.815 Y115.192 E.04377
G1 X112.305 Y114.301 E.05076
G1 X112.057 Y113.161 E.05774
G1 X112.059 Y102.151 E.54467
G1 X112.203 Y101.244 E.04542
G1 X112.514 Y100.421 E.04352
G1 X112.96 Y99.722 E.041
G1 X113.569 Y99.12 E.04236
G1 X114.558 Y98.578 E.0558
G1 X115.657 Y98.389 E.05517
G1 X118.31 Y98.391 E.13121
; printing object y-idler-tensioner-2gt-20t-b3.stl id:0 copy 0
;WIPE_START
G1 F9600
G1 X122.881 Y98.393 E-.95
;WIPE_END
G1 E-.05 F2100
G1 Z.8 F720
G1 X133.799 Y102.541 F12000
G1 Z.6 F720
G1 E1 F2100
;TYPE:Perimeter
;WIDTH:0.649999
G1 F2188
G1 X133.803 Y112.436 E.48947
G1 X116.197 Y112.436 E.87099
G1 X116.197 Y102.536 E.48973
G1 X133.739 Y102.541 E.86783
G1 X134.311 Y102.025 F12000
G1 F2188
G1 X134.406 Y102.384 E.01837
G1 X134.41 Y112.856 E.51805
G1 X134.383 Y113.005 E.00751
G1 X134.276 Y113.043 E.00559
G1 X115.776 Y113.043 E.91516
G1 X115.627 Y113.015 E.00752
G1 X115.589 Y112.908 E.00558
G1 X115.589 Y102.459 E.5169
G1 X115.616 Y102.201 E.01286
G1 X115.754 Y101.929 E.01508
G1 X134.253 Y101.934 E.91512
G1 X134.279 Y101.974 E.00236
G1 X134.828 Y101.698 F12000
;TYPE:External perimeter
G1 F2188
G1 X134.924 Y101.878 E.01009
G1 X135.013 Y102.323 E.02245
G1 X135.018 Y112.856 E.52104
G1 X134.969 Y113.164 E.01545
G1 X134.85 Y113.415 E.01371
G1 X134.624 Y113.577 E.01376
G1 X134.319 Y113.65 E.01552
G1 X115.776 Y113.65 E.91731
G1 X115.467 Y113.601 E.01549
G1 X115.218 Y113.482 E.01367
G1 X115.055 Y113.257 E.01375
G1 X114.982 Y112.951 E.01552
G1 X114.982 Y102.428 E.52061
G1 X115.052 Y101.974 E.02268
G1 X115.189 Y101.677 E.01619
G1 X115.426 Y101.395 E.01824
G1 X115.678 Y101.322 E.01296
G1 X134.227 Y101.327 E.91759
G1 X134.569 Y101.398 E.01728
G1 X134.77 Y101.586 E.01362
G1 X134.8 Y101.645 E.00326
G1 X134.733 Y101.878 F12000
;WIPE_START
G1 F9600
G1 X134.924 Y101.878 E-.05487
G1 X135.013 Y102.323 E-.0943
G1 X135.015 Y106.177 E-.80083
;WIPE_END
G1 E-.05 F2100
G1 Z.8 F720
G1 X133.618 Y103.964 F12000
G1 Z.6 F720
G1 E1 F2100
;TYPE:Solid infill
;WIDTH:0.656282
G1 F2188
G1 X132.65 Y102.996 E.06843
G1 X131.782 Y102.996 E.04337
G1 X133.345 Y104.559 E.11047
G1 X133.345 Y105.427 E.04337
G1 X130.914 Y102.996 E.17182
G1 X130.047 Y102.995 E.04337
G1 X133.346 Y106.294 E.23318
G1 X133.346 Y107.162 E.04337
G1 X129.179 Y102.995 E.29454
G1 X128.311 Y102.995 E.04337
G1 X133.346 Y108.03 E.35589
G1 X133.347 Y108.898 E.04337
G1 X127.444 Y102.995 E.41725
G1 X126.576 Y102.994 E.04337
G1 X133.347 Y109.765 E.4786
G1 X133.347 Y110.633 E.04337
G1 X125.708 Y102.994 E.53996
G1 X124.841 Y102.994 E.04337
G1 X133.348 Y111.501 E.60131
G1 X133.348 Y111.98 E.02396
G1 X132.96 Y111.98 E.0194
G1 X123.973 Y102.994 E.63522
G1 X123.105 Y102.993 E.04337
G1 X132.092 Y111.98 E.63524
G1 X131.225 Y111.98 E.04335
G1 X122.237 Y102.993 E.63526
G1 X121.37 Y102.993 E.04337
G1 X130.357 Y111.98 E.63527
G1 X129.49 Y111.98 E.04335
G1 X120.502 Y102.993 E.63529
G1 X119.634 Y102.992 E.04337
G1 X128.622 Y111.98 E.63531
G1 X127.755 Y111.98 E.04335
G1 X118.767 Y102.992 E.63533
G1 X117.899 Y102.992 E.04337
G1 X126.888 Y111.98 E.63535
G1 X126.02 Y111.98 E.04335
G1 X117.031 Y102.991 E.63537
G1 X116.652 Y102.991 E.01897
G1 X116.652 Y103.479 E.0244
G1 X125.153 Y111.98 E.60087
G1 X124.285 Y111.98 E.04335
G1 X116.652 Y104.347 E.53956
G1 X116.652 Y105.214 E.04335
G1 X123.418 Y111.98 E.47825
G1 X122.55 Y111.98 E.04335
G1 X116.652 Y106.082 E.41694
G1 X116.652 Y106.949 E.04335
G1 X121.683 Y111.98 E.35562
G1 X120.816 Y111.98 E.04335
G1 X116.652 Y107.817 E.29431
G1 X116.652 Y108.684 E.04335
G1 X119.948 Y111.98 E.233
G1 X119.081 Y111.98 E.04335
G1 X116.652 Y109.551 E.17168
G1 X116.652 Y110.419 E.04335
G1 X118.213 Y111.98 E.11037
G1 X117.346 Y111.98 E.04335
G1 X116.379 Y111.013 E.06837
; stop printing object y-idler-tensioner-2gt-20t-b3.stl id:0 copy 0
M106 S63.75
;LAYER_CHANGE
;Z:0.8
;HEIGHT:0.2
;BEFORE_LAYER_CHANGE
;0.8
G92 E0
;WIPE_START
G1 F9600
G1 X117.346 Y111.98 E-.28425
G1 X118.213 Y111.98 E-.18026
G1 X116.652 Y110.419 E-.4589
G1 X116.652 Y110.291 E-.02659
;WIPE_END
G1 E-.05 F2100
G1 Z.8 F720
;AFTER_LAYER_CHANGE
;0.8
; printing object y-idler-tensioner-2gt-20t-b3.stl id:0 copy 0
G1 Z1
G1 X133.8 Y102.343 F12000
G1 Z.8 F720
G1 E1 F2100
;TYPE:Perimeter
;WIDTH:0.649999
G1 F1860
G1 X133.803 Y112.436 E.49925
G1 X116.197 Y112.436 E.87099
G1 X116.197 Y102.336 E.49962
G1 X133.74 Y102.343 E.86784
G1 X134.331 Y101.86 F12000
G1 F1860
G1 X134.407 Y102.189 E.01671
G1 X134.41 Y112.898 E.52975
G1 X134.368 Y113.024 E.00658
G1 X134.276 Y113.043 E.00464
G1 X115.734 Y113.043 E.91723
G1 X115.609 Y113 E.00657
G1 X115.589 Y112.908 E.00464
G1 X115.589 Y102.259 E.5268
G1 X115.616 Y102.001 E.01282
G1 X115.755 Y101.729 E.01513
G1 X134.242 Y101.737 E.91455
G1 X134.296 Y101.811 E.00455
G1 X134.832 Y101.509 F12000
;TYPE:External perimeter
G1 F1860
G1 X134.927 Y101.687 E.00996
G1 X135.014 Y102.13 E.02232
G1 X135.018 Y112.897 E.53267
G1 X134.989 Y113.153 E.01274
G1 X134.842 Y113.422 E.01513
G1 X134.633 Y113.573 E.01276
G1 X134.319 Y113.65 E.01597
